!!!COM: Johann Sebastian Bach
!!!OTL: Brandenburg Concerto No. 2 in F Major (movement 1)
!!!system-decoration: ([(s1,s2,s3,s4)][({(s5,s6)}s7,s8,s9)])
**kern	**kern	**kern	**kern	**kern	**kern	**kern	**kern	**kern	**kern	**kern	**kern	**kern	**kern	**kern	**kern	**kern	**kern	**kern	**kern	**kern	**kern	**kern	**kern	**kern	**kern	**kern	**kern	**kern	**kern	**kern	**kern	**kern	**kern	**kern	**kern	**dynam	**kern	**kern	**kern	**kern	**kern	**kern	**kern	**kern	**kern	**dynam	**kern	**kern	**kern	**kern	**kern	**kern	**kern	**kern	**kern	**dynam	**kern	**kern	**kern	**kern	**kern	**kern	**kern	**kern	**kern	**kern	**kern	**kern	**kern	**kern	**kern	**kern	**kern	**kern	**kern	**kern	**kern	**kern	**kern	**kern	**kern	**kern	**kern	**dynam
*part9	*part9	*part9	*part9	*part9	*part9	*part9	*part9	*part9	*part8	*part8	*part8	*part8	*part8	*part8	*part8	*part8	*part8	*part7	*part7	*part7	*part7	*part7	*part7	*part7	*part7	*part7	*part6	*part6	*part6	*part6	*part6	*part6	*part6	*part6	*part6	*part6	*part5	*part5	*part5	*part5	*part5	*part5	*part5	*part5	*part5	*part5	*part4	*part4	*part4	*part4	*part4	*part4	*part4	*part4	*part4	*part4	*part3	*part3	*part3	*part3	*part3	*part3	*part3	*part3	*part3	*part2	*part2	*part2	*part2	*part2	*part2	*part2	*part2	*part2	*part1	*part1	*part1	*part1	*part1	*part1	*part1	*part1	*part1	*part1
*staff81	*staff80	*staff79	*staff78	*staff77	*staff76	*staff75	*staff74	*staff73	*staff72	*staff71	*staff70	*staff69	*staff68	*staff67	*staff66	*staff65	*staff64	*staff63	*staff62	*staff61	*staff60	*staff59	*staff58	*staff57	*staff56	*staff55	*staff54	*staff53	*staff52	*staff51	*staff50	*staff49	*staff48	*staff47	*staff46	*	*staff45	*staff44	*staff43	*staff42	*staff41	*staff40	*staff39	*staff38	*staff37	*	*staff36	*staff35	*staff34	*staff33	*staff32	*staff31	*staff30	*staff29	*staff28	*	*staff27	*staff26	*staff25	*staff24	*staff23	*staff22	*staff21	*staff20	*staff19	*staff18	*staff17	*staff16	*staff15	*staff14	*staff13	*staff12	*staff11	*staff10	*staff9	*staff8	*staff7	*staff6	*staff5	*staff4	*staff3	*staff2	*staff1	*
*I"Violoncello e Cembalo	*	*	*	*	*	*	*	*	*I"Violone di ripieno	*	*	*	*	*	*	*	*	*I"Viola di ripieno	*	*	*	*	*	*	*	*	*I"Violino 2 di ripieno	*	*	*	*	*	*	*	*	*	*I"Violino 1 di ripieno	*	*	*	*	*	*	*	*	*	*I"violin	*	*	*	*	*	*	*	*	*	*I"Oboe	*	*	*	*	*	*	*	*	*I"Flute	*	*	*	*	*	*	*	*	*I"Trumpet	*	*	*	*	*	*	*	*	*
*clefF4	*clefF4	*clefF3	*clefG2	*	*clefG2	*	*clefG2	*	*clefG2	*clefG2	*clefG2	*
*k[b-]	*k[b-]	*k[b-]	*k[b-]	*	*k[b-]	*	*k[b-]	*	*k[b-]	*k[b-]	*k[b-]	*
*M2/2	*M2/2	*M2/2	*M2/2	*	*M2/2	*	*M2/2	*	*M2/2	*M2/2	*M2/2	*
8FF	8FF	8a	8cc	.	8ff	.	8ff	.	8ff	8ff	8f	.
=1	=1	=1	=1	=1	=1	=1	=1	=1	=1	=1	=1	=1
16FL	16FL	8fL	8aL	.	8ccL	.	8ccL	.	8ccL	8ccL	8aL	.
16G	16G	.	.	.	.	.	.	.	.	.	.	.
16A	16A	8c	16f	.	16a	.	16a	.	16a	16a	8cc	.
16GJ	16GJ	.	16gJ	.	16b-yJ	.	16b-yJ	.	16b-yJ	16b-yJ	.	.
16FL	16FL	8f	8aL	.	8ccL	.	8ccL	.	8ccL	8ccL	8a	.
16G	16G	.	.	.	.	.	.	.	.	.	.	.
16A	16A	8cJ	16f	.	16a	.	16a	.	16a	16a	8fJ	.
16GJ	16GJ	.	16gJ	.	16b-yJ	.	16b-yJ	.	16b-yJ	16b-yJ	.	.
16FL	16FL	8fL	8aL	.	8ccL	.	8ccL	.	8ccL	8ccL	8aL	.
16E	16E	.	.	.	.	.	.	.	.	.	.	.
16F	16F	8a	8cc	.	8ff	.	8ff	.	8ff	8ff	8cc	.
16GJ	16GJ	.	.	.	.	.	.	.	.	.	.	.
16AL	16AL	8cc	8f	.	8cc	.	8cc	.	8cc	8cc	8ff	.
16B-y	16B-y	.	.	.	.	.	.	.	.	.	.	.
16A	16A	8cJ	8ccJ	.	8ffJ	.	8ffJ	.	8ffJ	8ffJ	8ccJ	.
16GJ	16GJ	.	.	.	.	.	.	.	.	.	.	.
=2	=2	=2	=2	=2	=2	=2	=2	=2	=2	=2	=2	=2
16FL	16FL	8fL	8aL	.	8ccL	.	8ccL	.	8ccL	8ccL	8aL	.
16G	16G	.	.	.	.	.	.	.	.	.	.	.
16A	16A	8c	16f	.	16a	.	16a	.	16a	16a	8cc	.
16GJ	16GJ	.	16gJ	.	16b-yJ	.	16b-yJ	.	16b-yJ	16b-yJ	.	.
16FL	16FL	8f	8aL	.	8ccL	.	8ccL	.	8ccL	8ccL	8a	.
16G	16G	.	.	.	.	.	.	.	.	.	.	.
16A	16A	8cJ	16f	.	16a	.	16a	.	16a	16a	8fJ	.
16GJ	16GJ	.	16gJ	.	16b-yJ	.	16b-yJ	.	16b-yJ	16b-yJ	.	.
16FL	16FL	8fL	8aL	.	8ccL	.	8ccL	.	8ccL	8ccL	8aL	.
16E	16E	.	.	.	.	.	.	.	.	.	.	.
16F	16F	8a	8cc	.	8ff	.	8ff	.	8ff	8ff	8ccJ	.
16GJ	16GJ	.	.	.	.	.	.	.	.	.	.	.
8AL	8AL	8cc	8f	.	8cc	.	8cc	.	8cc	8cc	16ffL	.
.	.	.	.	.	.	.	.	.	.	.	16gg	.
8FJ	8FJ	8aJ	8ccJ	.	8ffJ	.	8ffJ	.	8ffJ	8ffJ	16aa	.
.	.	.	.	.	.	.	.	.	.	.	16bb-yJ	.
=3	=3	=3	=3	=3	=3	=3	=3	=3	=3	=3	=3	=3
8EL	8EL	8gL	16ccL	.	16ggL	.	16ggL	.	16ggL	16ggL	8cccL	.
.	.	.	16dd	.	16ff	.	16ff	.	16ff	16ff	.	.
8G	8G	8b-y	16ee	.	16gg	.	16gg	.	16gg	16gg	8ccc	.
.	.	.	16ffJ	.	16aaJ	.	16aaJ	.	16aaJ	16aaJ	.	.
8C	8C	8e	8ggL	.	16bb-yL	.	16bb-yL	.	16bb-yL	16bb-yL	8ccc	.
.	.	.	.	.	16aa	.	16aa	.	16aa	16aa	.	.
8FJ	8FJ	8ccJ	8ffJ	.	16bb-y	.	16bb-y	.	16bb-y	16bb-y	8cccJ	.
.	.	.	.	.	16aaJ	.	16aaJ	.	16aaJ	16aaJ	.	.
8EL	8EL	4g	4cc	.	16ggL	.	16ggL	.	16ggL	16ggL	[2cccT	.
.	.	.	.	.	16ff	.	16ff	.	16ff	16ff	.	.
8G	8G	.	.	.	16ee	.	16ee	.	16ee	16ee	.	.
.	.	.	.	.	16ddJ	.	16ddJ	.	16ddJ	16ddJ	.	.
8C	8C	8r	4r	.	16ccL	.	16ccL	.	16ccL	16ccL	.	.
.	.	.	.	.	16ff	.	16ff	.	16ff	16ff	.	.
8AJ	8AJ	8a	.	.	16ee	.	16ee	.	16ee	16ee	.	.
.	.	.	.	.	16ffJ	.	16ffJ	.	16ffJ	16ffJ	.	.
=4	=4	=4	=4	=4	=4	=4	=4	=4	=4	=4	=4	=4
8EL	8EL	8gL	16ccL	.	16ggL	.	16ggL	.	16ggL	16ggL	2.ccc]	.
.	.	.	16dd	.	16ff	.	16ff	.	16ff	16ff	.	.
8G	8G	8b-y	16ee	.	16gg	.	16gg	.	16gg	16gg	.	.
.	.	.	16ffJ	.	16aaJ	.	16aaJ	.	16aaJ	16aaJ	.	.
8C	8C	8e	8ggL	.	16bb-yL	.	16bb-yL	.	16bb-yL	16bb-yL	.	.
.	.	.	.	.	16aa	.	16aa	.	16aa	16aa	.	.
8FJ	8FJ	8ccJ	8ffJ	.	16bb-y	.	16bb-y	.	16bb-y	16bb-y	.	.
.	.	.	.	.	16aaJ	.	16aaJ	.	16aaJ	16aaJ	.	.
8EL	8EL	4g	4cc	.	16ggL	.	16ggL	.	16ggL	16ggL	.	.
.	.	.	.	.	16ff	.	16ff	.	16ff	16ff	.	.
8G	8G	.	.	.	16ee	.	16ee	.	16ee	16ee	.	.
.	.	.	.	.	16ddJ	.	16ddJ	.	16ddJ	16ddJ	.	.
8C	8C	8r	8r	.	16ccL	.	16ccL	.	16ccL	16ccL	8r	.
.	.	.	.	.	16b-y	.	16b-y	.	16b-y	16b-y	.	.
8BB-yJ	8BB-yJ	16cL	16fL	.	16a	.	16a	.	16a	16a	8ff	.
.	.	16B-yJ	16eJ	.	16gJ	.	16gJ	.	16gJ	16gJ	.	.
=5	=5	=5	=5	=5	=5	=5	=5	=5	=5	=5	=5	=5
8AAL	8AAL	8cL	8fL	.	8fL	.	8fL	.	8fL	8fL	8ffL	.
8GG	8GG	16c	16f	.	16a	.	16a	.	16a	16a	8cc	.
.	.	16B-yJ	16eJ	.	16gJ	.	16gJ	.	16gJ	16gJ	.	.
8AA	8AA	8AL	8fL	.	8fL	.	8fL	.	8fL	8fL	8cc	.
8CJ	8CJ	16A	16f	.	16cc	.	16cc	.	16cc	16cc	8aJ	.
.	.	16GJ	16eJ	.	16b-yJ	.	16b-yJ	.	16b-yJ	16b-yJ	.	.
8FL	8FL	8FL	8fL	.	8aL	.	8aL	.	8aL	8aL	8aL	.
8C	8C	16A	16f	.	8ffJ	.	8ffJ	.	8ffJ	8ffJ	8f	.
.	.	16GJ	16eJ	.	.	.	.	.	.	.	.	.
8AA	8AA	8FL	8fL	.	16ccL	.	16ccL	.	16ccL	16ccL	8f	.
.	.	.	.	.	16b-y	.	16b-y	.	16b-y	16b-y	.	.
8CJ	8CJ	16c	16f	.	16a	.	16a	.	16a	16a	8ffJ	.
.	.	16B-yJ	16eJ	.	16gJ	.	16gJ	.	16gJ	16gJ	.	.
=6	=6	=6	=6	=6	=6	=6	=6	=6	=6	=6	=6	=6
8AAL	8AAL	8cL	8fL	.	8fL	.	8fL	.	8fL	8fL	8ffL	.
8FF	8FF	16c	16f	.	16a	.	16a	.	16a	16a	8cc	.
.	.	16B-yJ	16eJ	.	16gJ	.	16gJ	.	16gJ	16gJ	.	.
8AA	8AA	8AL	8fL	.	8fL	.	8fL	.	8fL	8fL	8cc	.
8CJ	8CJ	16A	16f	.	16cc	.	16cc	.	16cc	16cc	8aJ	.
.	.	16GJ	16eJ	.	16b-yJ	.	16b-yJ	.	16b-yJ	16b-yJ	.	.
8FL	8FL	8FL	8fL	.	8aL	.	8aL	.	8aL	8aL	8aL	.
8C	8C	16A	16f	.	8ffJ	.	8ffJ	.	8ffJ	8ffJ	8fJ	.
.	.	16GJ	16eJ	.	.	.	.	.	.	.	.	.
8AA	8AA	8FL	8fL	.	16ccL	.	16ccL	.	16ccL	16ccL	8fL	.
.	.	.	.	.	16dd	.	16dd	.	16dd	16dd	.	.
8FFJ	8FFJ	8aJ	8ccJ	.	16ee	.	16ee	.	16ee	16ee	16cc	.
.	.	.	.	.	16ffJ	.	16ffJ	.	16ffJ	16ffJ	16ccJ	.
=7	=7	=7	=7	=7	=7	=7	=7	=7	=7	=7	=7	=7
8CL	8CL	8g	8ee	.	16ggL	.	16ggL	.	16ggL	16ggL	4cc	.
.	.	.	.	.	16aa	.	16aa	.	16aa	16aa	.	.
8EE	8EE	4c	4gg	.	16bb-y	.	16bb-y	.	16bb-y	16bb-y	.	.
.	.	.	.	.	16ggJ	.	16ggJ	.	16ggJ	16ggJ	.	.
8FF	8FF	.	.	.	16aaL	.	16aaL	.	16aaL	16aaL	8r	.
.	.	.	.	.	16ff	.	16ff	.	16ff	16ff	.	.
8AAJ	8AAJ	8a	8ff	.	16cc	.	16cc	.	16cc	16cc	16ccL	.
.	.	.	.	.	16ffJ	.	16ffJ	.	16ffJ	16ffJ	16ccJ	.
8CL	8CL	8g	8eeL	.	16ggL	.	16ggL	.	16ggL	16ggL	4cc	.
.	.	.	.	.	16aa	.	16aa	.	16aa	16aa	.	.
8EE	8EE	4c	8gg	.	16bb-y	.	16bb-y	.	16bb-y	16bb-y	.	.
.	.	.	.	.	16ggJ	.	16ggJ	.	16ggJ	16ggJ	.	.
8FF	8FF	.	8ff	.	16bb-yL	.	16bb-yL	.	16bb-yL	16bb-yL	8r	.
.	.	.	.	.	16ff	.	16ff	.	16ff	16ff	.	.
8EJ	8EJ	8B-y	8ggJ	.	8ccc`>J	.	8ccc`>J	.	8ccc`>J	8ccc`>J	16ccL	.
.	.	.	.	.	.	.	.	.	.	.	16ccJ	.
=8	=8	=8	=8	=8	=8	=8	=8	=8	=8	=8	=8	=8
8FL	8FL	8fL	8ccL	.	16bb-yL	.	16bb-yL	.	16bb-yL	16bb-yL	8ccL	.
.	.	.	.	.	16aa	.	16aa	.	16aa	16aa	.	.
8BB-y	8BB-y	8d	8b-y	.	16gg	.	16gg	.	16gg	16gg	16ff	.
.	.	.	.	.	16ffJ	.	16ffJ	.	16ffJ	16ffJ	16ccJ	.
8C	8C	8c	8a	.	8ccL	.	8ccL	.	8ccL	8ccL	16aL	.
.	.	.	.	.	.	.	.	.	.	.	16f	.
8CCJ	8CCJ	8cJ	8gJ	.	8eeJT	.	8eeJT	.	8eeJT	8eeJT	8ccJ	.
8FFL	4FF	4c	4a	.	4ff	.	4ff	.	8ffL	8ffL	4a	.
8GG	.	.	.	.	.	.	.	.	16ee	16ee	.	.
.	.	.	.	.	.	.	.	.	16ddJ	16ddJ	.	.
8AA	4r	4r	4r	.	4r	.	8r	.	16ccL	16ccL	4r	.
.	.	.	.	.	.	.	.	.	16b-y	16b-y	.	.
8FFJ	.	.	.	.	.	.	8cc	.	16a	16a	.	.
.	.	.	.	.	.	.	.	.	16gJ	16gJ	.	.
=9	=9	=9	=9	=9	=9	=9	=9	=9	=9	=9	=9	=9
8BB-yL	1r	1r	1r	.	1r	.	16ddL	.	4f	4f	1r	.
.	.	.	.	.	.	.	16ee	.	.	.	.	.
8AA	.	.	.	.	.	.	16dd	.	.	.	.	.
.	.	.	.	.	.	.	16eeJ	.	.	.	.	.
8GG	.	.	.	.	.	.	8.ffLT	.	4r	4r	.	.
8CJ	.	.	.	.	.	.	.	.	.	.	.	.
.	.	.	.	.	.	.	32dd	.	.	.	.	.
.	.	.	.	.	.	.	32eeJ	.	.	.	.	.
8AAL	.	.	.	.	.	.	8ffL	.	2r	2r	.	.
8GG	.	.	.	.	.	.	16f	.	.	.	.	.
.	.	.	.	.	.	.	16gJ	.	.	.	.	.
8FF	.	.	.	.	.	.	16aL	.	.	.	.	.
.	.	.	.	.	.	.	16b-y	.	.	.	.	.
8FJ	.	.	.	.	.	.	16cc	.	.	.	.	.
.	.	.	.	.	.	.	16aJ	.	.	.	.	.
=10	=10	=10	=10	=10	=10	=10	=10	=10	=10	=10	=10	=10
4BB-y	2r	2r	2r	.	2r	.	16ddL	.	2r	2r	2r	.
.	.	.	.	.	.	.	16b-y	.	.	.	.	.
.	.	.	.	.	.	.	16g	.	.	.	.	.
.	.	.	.	.	.	.	16b-yJ	.	.	.	.	.
4C	.	.	.	.	.	.	16eL	.	.	.	.	.
.	.	.	.	.	.	.	16g	.	.	.	.	.
.	.	.	.	.	.	.	16cc	.	.	.	.	.
.	.	.	.	.	.	.	16b-yJ	.	.	.	.	.
8FFL	4r	4r	4r	.	4r	.	16aL	.	4r	4r	4r	.
.	.	.	.	.	.	.	16b-y	.	.	.	.	.
16F	.	.	.	.	.	.	16cc	.	.	.	.	.
16GJ	.	.	.	.	.	.	16aJ	.	.	.	.	.
16AL	8r	8r	8r	.	8r	.	8fL	.	8r	8r	8r	.
16B-y	.	.	.	.	.	.	.	.	.	.	.	.
16A	8FF	8a	8cc	.	8ff	.	8ffJ	.	8ff	8ff	8f	.
16GJ	.	.	.	.	.	.	.	.	.	.	.	.
=11	=11	=11	=11	=11	=11	=11	=11	=11	=11	=11	=11	=11
16FL	16FL	8fL	8aL	.	8ccL	.	8ccL	.	8ccL	8ccL	8aL	.
16G	16G	.	.	.	.	.	.	.	.	.	.	.
16A	16A	8c	16f	.	16a	.	16a	.	16a	16a	8cc	.
16GJ	16GJ	.	16gJ	.	16b-yJ	.	16b-yJ	.	16b-yJ	16b-yJ	.	.
16FL	16FL	8f	8aL	.	8ccL	.	8ccL	.	8ccL	8ccL	8a	.
16G	16G	.	.	.	.	.	.	.	.	.	.	.
16A	16A	8cJ	16f	.	16a	.	16a	.	16a	16a	8fJ	.
16GJ	16GJ	.	16gJ	.	16b-yJ	.	16b-yJ	.	16b-yJ	16b-yJ	.	.
16FL	16FL	8fL	8aL	.	8ccL	.	8ccL	.	8ccL	8ccL	8aL	.
16E	16E	.	.	.	.	.	.	.	.	.	.	.
16F	16F	8a	8cc	.	8ff	.	8ff	.	8ff	8ff	8cc	.
16GJ	16GJ	.	.	.	.	.	.	.	.	.	.	.
16AL	16AL	8cc	8f	.	8cc	.	8cc	.	8cc	8cc	8ff	.
16B-y	16B-y	.	.	.	.	.	.	.	.	.	.	.
16A	16A	8cJ	8ccJ	.	8ffJ	.	8ffJ	.	8ffJ	8ffJ	8ccJ	.
16GJ	16GJ	.	.	.	.	.	.	.	.	.	.	.
=12	=12	=12	=12	=12	=12	=12	=12	=12	=12	=12	=12	=12
16FL	16FL	8fL	8aL	.	8ccL	.	8ccL	.	8ccL	8ccL	8aL	.
16G	16G	.	.	.	.	.	.	.	.	.	.	.
16A	16A	8c	16f	.	16a	.	16a	.	16a	16a	8cc	.
16GJ	16GJ	.	16gJ	.	16b-yJ	.	16b-yJ	.	16b-yJ	16b-yJ	.	.
16FL	16FL	8f	8aL	.	8ccL	.	8ccL	.	8ccL	8ccL	8a	.
16G	16G	.	.	.	.	.	.	.	.	.	.	.
16A	16A	8cJ	16f	.	16a	.	16a	.	16a	16a	8fJ	.
16GJ	16GJ	.	16gJ	.	16b-yJ	.	16b-yJ	.	16b-yJ	16b-yJ	.	.
16FL	8FL	8fL	8aL	.	8ccL	.	8ccL	.	8ccL	8ccL	8aL	.
16E	.	.	.	.	.	.	.	.	.	.	.	.
16F	8FFJ	8aJ	8ccJ	.	8ffJ	.	8ffJ	.	8ff	8ffJ	8ccJ	.
16GJ	.	.	.	.	.	.	.	.	.	.	.	.
8AL	4F	4cc	4f	.	4cc	.	16ccL	.	8cc	4cc	4ff	.
.	.	.	.	.	.	.	16ff	.	.	.	.	.
8FJ	.	.	.	.	.	.	16a	.	8ccJ	.	.	.
.	.	.	.	.	.	.	16ffJ	.	.	.	.	.
=13	=13	=13	=13	=13	=13	=13	=13	=13	=13	=13	=13	=13
8B-yL	1r	1r	1r	.	1r	.	16b-yL	.	16ddL	1r	1r	.
.	.	.	.	.	.	.	16ff	.	16ee	.	.	.
8A	.	.	.	.	.	.	16b-y	.	16dd	.	.	.
.	.	.	.	.	.	.	16ffJ	.	16eeJ	.	.	.
8G	.	.	.	.	.	.	16b-yL	.	8.eeLT	.	.	.
.	.	.	.	.	.	.	16gg	.	.	.	.	.
8cJ	.	.	.	.	.	.	16b-y	.	.	.	.	.
.	.	.	.	.	.	.	16ggJ	.	32dd	.	.	.
.	.	.	.	.	.	.	.	.	32eeJ	.	.	.
8AL	.	.	.	.	.	.	16ccL	.	8ffL	.	.	.
.	.	.	.	.	.	.	16aa	.	.	.	.	.
8G	.	.	.	.	.	.	16cc	.	16f	.	.	.
.	.	.	.	.	.	.	16aaJ	.	16gJ	.	.	.
8F	.	.	.	.	.	.	16ccL	.	16aL	.	.	.
.	.	.	.	.	.	.	16ff	.	16b-y	.	.	.
8AJ	.	.	.	.	.	.	16cc	.	16cc	.	.	.
.	.	.	.	.	.	.	16ffJ	.	16aJ	.	.	.
=14	=14	=14	=14	=14	=14	=14	=14	=14	=14	=14	=14	=14
4G	2r	2r	2r	.	2r	.	16b-yL	.	16ddL	2r	2r	.
.	.	.	.	.	.	.	16ff	.	16b-y	.	.	.
.	.	.	.	.	.	.	16b-y	.	16g	.	.	.
.	.	.	.	.	.	.	16ffJ	.	16b-yJ	.	.	.
4c	.	.	.	.	.	.	16b-yL	.	16eL	.	.	.
.	.	.	.	.	.	.	16ee	.	16g	.	.	.
.	.	.	.	.	.	.	16b-y	.	16cc	.	.	.
.	.	.	.	.	.	.	16eeJ	.	16b-yJ	.	.	.
8FL	4r	4r	4r	.	4r	.	16ffL	.	16aL	4r	4r	.
.	.	.	.	.	.	.	16gg	.	16b-y	.	.	.
8G	.	.	.	.	.	.	16aa	.	16cc	.	.	.
.	.	.	.	.	.	.	16ffJ	.	16aJ	.	.	.
8A	8r	8r	8r	.	8r	.	16ccL	.	8fL	8r	8r	.
.	.	.	.	.	.	.	16ff	.	.	.	.	.
8FJ	8F	8f	8cc	.	8aa	.	16aa	.	8aaJ	8aa	8cc	.
.	.	.	.	.	.	.	16ffJ	.	.	.	.	.
=15	=15	=15	=15	=15	=15	=15	=15	=15	=15	=15	=15	=15
8EL	8EL	8gL	8ccL	.	8ggL	.	8ggL	.	8ggL	8ggL	16cccL	.
.	.	.	.	.	.	.	.	.	.	.	16ddd	.
8G	8G	8cc	8g	.	16ee	.	16ee	.	16ee	16ee	16eee	.
.	.	.	.	.	16ffJ	.	16ffJ	.	16ffJ	16ffJ	16dddJ	.
8E	8E	8g	8cc	.	8ggL	.	8ggL	.	8ggL	8ggL	16cccL	.
.	.	.	.	.	.	.	.	.	.	.	16ddd	.
8CJ	8CJ	8ccJ	8gJ	.	16ee	.	16ee	.	16ee	16ee	16eee	.
.	.	.	.	.	16ffJ	.	16ffJ	.	16ffJ	16ffJ	16dddJ	.
8EL	8EL	8gL	8ccL	.	8ggL	.	8ggL	.	8ggL	8ggL	16cccL	.
.	.	.	.	.	.	.	.	.	.	.	16bbn	.
8G	8G	8e	8gg	.	8ccc	.	8ccc	.	8ccc	8ccc	16ccc	.
.	.	.	.	.	.	.	.	.	.	.	16dddJ	.
8c	8c	8c	8ee	.	8gg	.	8gg	.	8gg	8gg	16eeeL	.
.	.	.	.	.	.	.	.	.	.	.	16fff	.
8GJ	8GJ	8eJ	8ggJ	.	8cccJ	.	8cccJ	.	8cccJ	8cccJ	16eee	.
.	.	.	.	.	.	.	.	.	.	.	16dddJ	.
=16	=16	=16	=16	=16	=16	=16	=16	=16	=16	=16	=16	=16
8EL	8EL	8gL	8ccL	.	8ggL	.	8ggL	.	8ggL	8ggL	16cccL	.
.	.	.	.	.	.	.	.	.	.	.	16ddd	.
8G	8G	8cc	8g	.	16ee	.	16ee	.	16ee	16ee	16eee	.
.	.	.	.	.	16ffJ	.	16ffJ	.	16ffJ	16ffJ	16dddJ	.
8E	8E	8g	8cc	.	8ggL	.	8ggL	.	8ggL	8ggL	16cccL	.
.	.	.	.	.	.	.	.	.	.	.	16ddd	.
8CJ	8CJ	8ccJ	8gJ	.	16ee	.	16ee	.	16ee	16ee	16eee	.
.	.	.	.	.	16ffJ	.	16ffJ	.	16ffJ	16ffJ	16dddJ	.
8EL	8EL	8gL	8ccL	.	8ggL	.	8ggL	.	8ggL	8ggL	8cccL	.
8G	8GJ	8eJ	8ggJ	.	8cccJ	.	8cccJ	.	8cccJ	8ccc	8ccJ	.
8c	4c	4c	4ee	.	4gg	.	4gg	.	16ggL	8gg	4r	.
.	.	.	.	.	.	.	.	.	16cc	.	.	.
8CJ	.	.	.	.	.	.	.	.	16e	8ggJ	.	.
.	.	.	.	.	.	.	.	.	16ccJ	.	.	.
=17	=17	=17	=17	=17	=17	=17	=17	=17	=17	=17	=17	=17
8FL	1r	1r	1r	.	1r	.	1r	.	16fL	16aaL	1r	.
.	.	.	.	.	.	.	.	.	16cc	16bbn	.	.
8E	.	.	.	.	.	.	.	.	16f	16aa	.	.
.	.	.	.	.	.	.	.	.	16ccJ	16bbJ	.	.
8D	.	.	.	.	.	.	.	.	16fL	8.bbLT	.	.
.	.	.	.	.	.	.	.	.	16dd	.	.	.
8GJ	.	.	.	.	.	.	.	.	16f	.	.	.
.	.	.	.	.	.	.	.	.	16ddJ	32aa	.	.
.	.	.	.	.	.	.	.	.	.	32bbJ	.	.
8EL	.	.	.	.	.	.	.	.	16gL	8cccL	.	.
.	.	.	.	.	.	.	.	.	16ee	.	.	.
8D	.	.	.	.	.	.	.	.	16g	16cc	.	.
.	.	.	.	.	.	.	.	.	16eeJ	16ddJ	.	.
8C	.	.	.	.	.	.	.	.	16gL	16eeL	.	.
.	.	.	.	.	.	.	.	.	16cc	16ff	.	.
8EJ	.	.	.	.	.	.	.	.	16g	16gg	.	.
.	.	.	.	.	.	.	.	.	16ccJ	16eeJ	.	.
=18	=18	=18	=18	=18	=18	=18	=18	=18	=18	=18	=18	=18
4F	2r	2r	2r	.	2r	.	2r	.	16fL	16aaL	2r	.
.	.	.	.	.	.	.	.	.	16cc	16ff	.	.
.	.	.	.	.	.	.	.	.	16f	16dd	.	.
.	.	.	.	.	.	.	.	.	16ccJ	16ffJ	.	.
4G	.	.	.	.	.	.	.	.	16fL	16bnL	.	.
.	.	.	.	.	.	.	.	.	16bn	16dd	.	.
.	.	.	.	.	.	.	.	.	16f	16gg	.	.
.	.	.	.	.	.	.	.	.	16bJ	16ffJ	.	.
8CL	4r	4r	4r	.	4r	.	4r	.	16ccL	16eeL	4r	.
.	.	.	.	.	.	.	.	.	16dd	16ff	.	.
8D	.	.	.	.	.	.	.	.	16ee	16gg	.	.
.	.	.	.	.	.	.	.	.	16ccJ	16eeJ	.	.
8E	8r	8r	8r	.	8r	.	8r	.	16gL	8ccL	8r	.
.	.	.	.	.	.	.	.	.	16cc	.	.	.
8CJ	8C	8g	8g	.	8ee	.	8ccc	.	16ee	8cccJ	8cc	.
.	.	.	.	.	.	.	.	.	16ccJ	.	.	.
=19	=19	=19	=19	=19	=19	=19	=19	=19	=19	=19	=19	=19
8EL	8EL	8gL	8ccL	.	8ggL	.	8ggL	.	8ggL	8ggL	16cccL	.
.	.	.	.	.	.	.	.	.	.	.	16ddd	.
8G	8G	8cc	8g	.	16ee	.	16ee	.	16ee	16ee	16eee	.
.	.	.	.	.	16ffJ	.	16ffJ	.	16ffJ	16ffJ	16dddJ	.
8E	8E	8g	8cc	.	8ggL	.	8ggL	.	8ggL	8ggL	16cccL	.
.	.	.	.	.	.	.	.	.	.	.	16ddd	.
8CJ	8CJ	8ccJ	8gJ	.	16ee	.	16ee	.	16ee	16ee	16eee	.
.	.	.	.	.	16ffJ	.	16ffJ	.	16ffJ	16ffJ	16dddJ	.
8EL	8EL	8gL	8ccL	.	8ggL	.	8ggL	.	8ggL	8ggL	16cccL	.
.	.	.	.	.	.	.	.	.	.	.	16bbn	.
8G	8G	8e	8gg	.	8ccc	.	8ccc	.	8ccc	8ccc	16ccc	.
.	.	.	.	.	.	.	.	.	.	.	16dddJ	.
8c	8c	8c	8ee	.	8gg	.	8gg	.	8gg	8gg	16eeeL	.
.	.	.	.	.	.	.	.	.	.	.	16fff	.
8GJ	8GJ	8eJ	8ggJ	.	8cccJ	.	8cccJ	.	8cccJ	8cccJ	16eee	.
.	.	.	.	.	.	.	.	.	.	.	16dddJ	.
=20	=20	=20	=20	=20	=20	=20	=20	=20	=20	=20	=20	=20
8EL	8EL	8gL	8ccL	.	8ggL	.	8ggL	.	8ggL	8ggL	16cccL	.
.	.	.	.	.	.	.	.	.	.	.	16ddd	.
8G	8G	8cc	8g	.	16ee	.	16ee	.	16ee	16ee	16eee	.
.	.	.	.	.	16ffJ	.	16ffJ	.	16ffJ	16ffJ	16dddJ	.
8E	8E	8g	8cc	.	8ggL	.	8ggL	.	8ggL	8ggL	16cccL	.
.	.	.	.	.	.	.	.	.	.	.	16ddd	.
8CJ	8CJ	8ccJ	8gJ	.	16ee	.	16ee	.	16ee	16ee	16eee	.
.	.	.	.	.	16ffJ	.	16ffJ	.	16ffJ	16ffJ	16dddJ	.
8EL	8EL	8gL	8ccL	.	8ggL	.	8ggL	.	8ggL	8ggL	8cccL	.
8G	8GJ	8eJ	8ggJ	.	8cccJ	.	8cccJ	.	8cccJ	8cccJ	8cc	.
8c	4c	4c	4ee	.	4gg	.	4gg	.	4gg	16ggL	8r	.
.	.	.	.	.	.	.	.	.	.	16ccc	.	.
8CJ	.	.	.	.	.	.	.	.	.	16ee	8ggJ	.
.	.	.	.	.	.	.	.	.	.	16cccJ	.	.
=21	=21	=21	=21	=21	=21	=21	=21	=21	=21	=21	=21	=21
8FL	1r	1r	1r	.	1r	.	1r	.	1r	16ffL	16aaL	.
.	.	.	.	.	.	.	.	.	.	16ccc	16bbn	.
8E	.	.	.	.	.	.	.	.	.	16ff	16aa	.
.	.	.	.	.	.	.	.	.	.	16cccJ	16bbJ	.
8D	.	.	.	.	.	.	.	.	.	16ffL	8.bbLT	.
.	.	.	.	.	.	.	.	.	.	16ddd	.	.
8GJ	.	.	.	.	.	.	.	.	.	16ff	.	.
.	.	.	.	.	.	.	.	.	.	16dddJ	32aa	.
.	.	.	.	.	.	.	.	.	.	.	32bbJ	.
8EL	.	.	.	.	.	.	.	.	.	16ggL	16cccL	.
.	.	.	.	.	.	.	.	.	.	16eee	16bb	.
8D	.	.	.	.	.	.	.	.	.	16gg	16ccc	.
.	.	.	.	.	.	.	.	.	.	16eeeJ	16dddJ	.
8E	.	.	.	.	.	.	.	.	.	16ggL	16cccL	.
.	.	.	.	.	.	.	.	.	.	16ccc	16bb	.
8CJ	.	.	.	.	.	.	.	.	.	16gg	16aa	.
.	.	.	.	.	.	.	.	.	.	16cccJ	16ggJ	.
=22	=22	=22	=22	=22	=22	=22	=22	=22	=22	=22	=22	=22
4F	2r	2r	2r	.	2r	.	2r	.	2r	16ffL	16aaL	.
.	.	.	.	.	.	.	.	.	.	16ccc	16gg	.
.	.	.	.	.	.	.	.	.	.	16ff	16aa	.
.	.	.	.	.	.	.	.	.	.	16cccJ	16cccJ	.
8GL	.	.	.	.	.	.	.	.	.	16ffL	16bbnL	.
.	.	.	.	.	.	.	.	.	.	16bbn	16aa	.
8GGJ	.	.	.	.	.	.	.	.	.	16ff	16gg	.
.	.	.	.	.	.	.	.	.	.	16bbJ	16ffJ	.
8CL	4r	4r	4r	.	4r	.	4r	.	4r	16cccL	8ggL	.
.	.	.	.	.	.	.	.	.	.	16gg	.	.
8D	.	.	.	.	.	.	.	.	.	16ee	8ccJ	.
.	.	.	.	.	.	.	.	.	.	16ggJ	.	.
8E	8r	8r	8r	.	8r	.	8r	.	8r	16ccL	8r	.
.	.	.	.	.	.	.	.	.	.	16dd	.	.
8CJ	8E	8g	8g	.	8cc	.	8cc	.	8cc	16ee	16ggL	.
.	.	.	.	.	.	.	.	.	.	16ccJ	16ggJ	.
=23	=23	=23	=23	=23	=23	=23	=23	=23	=23	=23	=23	=23
8BBnL	8BBnL	8dL	16gL	.	16ddL	.	16ddL	.	16ddL	16ddL	4gg	.
.	.	.	16a	.	16cc	.	16cc	.	16cc	16cc	.	.
8D	8D	8f	16bn	.	16dd	.	16dd	.	16dd	16dd	.	.
.	.	.	16ccJ	.	16eeJ	.	16eeJ	.	16eeJ	16eeJ	.	.
8GG	8GG	8Bn	8ddL	.	16ffL	.	16ffL	.	16ffL	16ffL	8r	.
.	.	.	.	.	16ee	.	16ee	.	16ee	16ee	.	.
8CJ	8CJ	8gJ	8ccJ	.	16ff	.	16ff	.	16ff	16ff	16ggL	.
.	.	.	.	.	16eeJ	.	16eeJ	.	16eeJ	16eeJ	16ggJ	.
8BBL	8BBL	4d	4g	.	16ddL	.	16ddL	.	16ddL	16ddL	4gg	.
.	.	.	.	.	16cc	.	16cc	.	16cc	16cc	.	.
8D	8D	.	.	.	16bn	.	16bn	.	16bn	16bn	.	.
.	.	.	.	.	16aJ	.	16aJ	.	16aJ	16aJ	.	.
8GG	8GG	8r	8r	.	16gL	.	16gL	.	16gL	16gL	8r	.
.	.	.	.	.	16cc	.	16cc	.	16cc	16cc	.	.
8EJ	8EJ	8g	8g	.	16b	.	16b	.	16b	16b	16ggL	.
.	.	.	.	.	16ccJ	.	16ccJ	.	16ccJ	16ccJ	16ggJ	.
=24	=24	=24	=24	=24	=24	=24	=24	=24	=24	=24	=24	=24
8BBnL	8BBnL	8dL	16gL	.	16ddL	.	16ddL	.	16ddL	16ddL	4gg	.
.	.	.	16a	.	16cc	.	16cc	.	16cc	16cc	.	.
8D	8D	8f	16bn	.	16dd	.	16dd	.	16dd	16dd	.	.
.	.	.	16ccJ	.	16eeJ	.	16eeJ	.	16eeJ	16eeJ	.	.
8GG	8GG	8Bn	8ddL	.	16ffL	.	16ffL	.	16ffL	16ffL	8r	.
.	.	.	.	.	16ee	.	16ee	.	16ee	16ee	.	.
8CJ	8CJ	8gJ	8ccJ	.	16ff	.	16ff	.	16ff	16ff	16ggL	.
.	.	.	.	.	16eeJ	.	16eeJ	.	16eeJ	16eeJ	16ggJ	.
8BBL	8BBL	4d	4g	.	16ddL	.	16ddL	.	16ddL	16ddL	4gg	.
.	.	.	.	.	16cc	.	16cc	.	16cc	16cc	.	.
8DJ	8D	.	.	.	16bn	.	16bn	.	16bn	16bn	.	.
.	.	.	.	.	16aJ	.	16aJ	.	16aJ	16aJ	.	.
8GGL	8GG	8r	8r	.	16gL	.	16gL	.	16gL	8gL	8r	.
.	.	.	.	.	16f	.	16f	.	16f	.	.	.
16G	8FFJ	8G	16cL	.	16e	.	16e	.	16e	8cccJ	8gg	.
16FJ	.	.	16BnJ	.	16dJ	.	16dJ	.	16dJ	.	.	.
=25	=25	=25	=25	=25	=25	=25	=25	=25	=25	=25	=25	=25
8EL	8EEL	8GL	4c	.	8cL	.	8cL	.	8cL	8cccL	8ggL	.
8C	8CC	16G	.	.	16e	.	16e	.	16e	8gg	16ccc	.
.	.	16FJ	.	.	16dJ	.	16dJ	.	16dJ	.	16bbnJ	.
8E	8EE	8EL	8r	.	8cL	.	8cL	.	8cL	8gg	8cccL	.
8GJ	8GGJ	16E	16cL	.	16g	.	16g	.	16g	8eeJ	8ggJ	.
.	.	16DJ	16BnJ	.	16fJ	.	16fJ	.	16fJ	.	.	.
8cL	8CL	4C	8cL	.	8eL	.	8eL	.	8eL	8eeL	8ggL	.
8G	8GG	.	16c	.	8ccJ	.	8ccJ	.	8ccJ	8cc	16eee	.
.	.	.	16BJ	.	.	.	.	.	.	.	16ddd#J	.
8E	8EE	8r	8cL	.	16gL	.	16gL	.	16gL	8cc	8eeeL	.
.	.	.	.	.	16f	.	16f	.	16f	.	.	.
8GJ	8GGJ	16GL	16c	.	16e	.	16e	.	16e	8cccJ	8ggJ	.
.	.	16FJ	16BJ	.	16dJ	.	16dJ	.	16dJ	.	.	.
=26	=26	=26	=26	=26	=26	=26	=26	=26	=26	=26	=26	=26
8EL	8EEL	8GL	4c	.	8cL	.	8cL	.	8cL	8cccL	8ggL	.
8C	8CC	16G	.	.	16e	.	16e	.	16e	8gg	16ccc	.
.	.	16FJ	.	.	16dJ	.	16dJ	.	16dJ	.	16bbnJ	.
8E	8EE	8EL	8r	.	8cL	.	8cL	.	8cL	8gg	8cccL	.
8GJ	8GGJ	16E	16cL	.	16g	.	16g	.	16g	8eeJ	8ggJ	.
.	.	16DJ	16BnJ	.	16fJ	.	16fJ	.	16fJ	.	.	.
8cL	8CL	4C	8cL	.	8eL	.	8eL	.	8eL	8eeL	8ggL	.
8G	8GG	.	16c	.	8ccJ	.	8ccJ	.	8ccJ	8cc	16eee	.
.	.	.	16BJ	.	.	.	.	.	.	.	16dddJ	.
8E	8EE	8r	8cL	.	16gL	.	16gL	.	16gL	8cc	4eee	.
.	.	.	.	.	16a	.	16a	.	16a	.	.	.
8CJ	8CCJ	8e	8gJ	.	16bn	.	16bn	.	16bn	8ggJ	.	.
.	.	.	.	.	16ccJ	.	16ccJ	.	16ccJ	.	.	.
=27	=27	=27	=27	=27	=27	=27	=27	=27	=27	=27	=27	=27
8GL	8GGL	8d	8bn	.	16ddL	.	16ddL	.	16ddL	16ddL	8r	.
.	.	.	.	.	16ee	.	16ee	.	16ee	16ee	.	.
8BBn	8BBn	4G	4dd	.	16ff	.	16ff	.	16ff	16ff	16ggL	.
.	.	.	.	.	16ddJ	.	16ddJ	.	16ddJ	16ddJ	16aaJ	.
8C	8C	.	.	.	16eeL	.	16eeL	.	16eeL	16eeL	8ggL	.
.	.	.	.	.	16cc	.	16cc	.	16cc	16cc	.	.
8EJ	8EJ	8e	8cc	.	16g	.	16g	.	16g	16g	8cccJ	.
.	.	.	.	.	16ccJ	.	16ccJ	.	16ccJ	16ccJ	.	.
8GL	8GL	8d	8bL	.	16ddL	.	16ddL	.	16ddL	16ddL	8bbnL	.
.	.	.	.	.	16ee	.	16ee	.	16ee	16ee	.	.
8BB	8BB	4G	8dd	.	16ff	.	16ff	.	16ff	16ff	16gg	.
.	.	.	.	.	16ddJ	.	16ddJ	.	16ddJ	16ddJ	16aaJ	.
8C	8C	.	8cc	.	16eeL	.	16eeL	.	16eeL	16eeL	8ggL	.
.	.	.	.	.	16cc	.	16cc	.	16cc	16cc	.	.
8EJ	8EJ	8A	8ccJ	.	8ggJ	.	8ggJ	.	8ggJ	8ggJ	8cccJ	.
=28	=28	=28	=28	=28	=28	=28	=28	=28	=28	=28	=28	=28
8AL	8AL	8cL	8ccL	.	16ffL	.	16ffL	.	16ffL	16ffL	4cc	.
.	.	.	.	.	16ee	.	16ee	.	16ee	16ee	.	.
8F	8F	8f	8a	.	16dd	.	16dd	.	16dd	16dd	.	.
.	.	.	.	.	16ccJ	.	16ccJ	.	16ccJ	16ccJ	.	.
8G	8G	8e	8g	.	8gL	.	8gL	.	8gL	8gL	4r	.
8GGJ	8GGJ	8dJ	8fJ	.	8bnJ	.	8bnJ	.	8bnJ	8bnJ	.	.
8CL	4C	4c	4e	.	4cc	.	16ccL	.	4cc	4cc	4r	.
.	.	.	.	.	.	.	16dd	.	.	.	.	.
16D	.	.	.	.	.	.	16cc	.	.	.	.	.
16EJ	.	.	.	.	.	.	16b-J	.	.	.	.	.
16FL	4r	4r	4r	.	4r	.	16aL	.	8r	8r	8r	.
16G	.	.	.	.	.	.	16g	.	.	.	.	.
16A	.	.	.	.	.	.	16f	.	8ff	8ff	8ccc	.
16FJ	.	.	.	.	.	.	16e-J	.	.	.	.	.
=29	=29	=29	=29	=29	=29	=29	=29	=29	=29	=29	=29	=29
8B-yL	1r	1r	1r	.	1r	.	16dL	.	4dd	4ff	16dddL	.
.	.	.	.	.	.	.	16c	.	.	.	16eee	.
8A	.	.	.	.	.	.	16B-y	.	.	.	16ddd	.
.	.	.	.	.	.	.	16AJ	.	.	.	16eeeJ	.
8G	.	.	.	.	.	.	16GL	.	4b-y	4gg	8.eeeLT	.
.	.	.	.	.	.	.	16c	.	.	.	.	.
8cJ	.	.	.	.	.	.	16B-y	.	.	.	.	.
.	.	.	.	.	.	.	16cJ	.	.	.	32ddd	.
.	.	.	.	.	.	.	.	.	.	.	32eeeJ	.
8AL	.	.	.	.	.	.	16AL	.	4cc	4aa	8fffL	.
.	.	.	.	.	.	.	16c	.	.	.	.	.
8G	.	.	.	.	.	.	16d	.	.	.	16ff	.
.	.	.	.	.	.	.	16eJ	.	.	.	16ggJ	.
8F	.	.	.	.	.	.	16fL	.	8r	8r	16aaL	.
.	.	.	.	.	.	.	16e-	.	.	.	16bb-y	.
8AJ	.	.	.	.	.	.	16d	.	8cc	8ff	16ccc	.
.	.	.	.	.	.	.	16cJ	.	.	.	16aaJ	.
=30	=30	=30	=30	=30	=30	=30	=30	=30	=30	=30	=30	=30
4B-y	2r	2r	2r	.	2r	.	16B-yL	.	4b-y	4ff	16dddL	.
.	.	.	.	.	.	.	16f	.	.	.	16bb-y	.
.	.	.	.	.	.	.	16e	.	.	.	16gg	.
.	.	.	.	.	.	.	16fJ	.	.	.	16bb-yJ	.
4c	.	.	.	.	.	.	16cL	.	4g	4ee	16ccL	.
.	.	.	.	.	.	.	16e	.	.	.	16gg	.
.	.	.	.	.	.	.	16d	.	.	.	16ccc	.
.	.	.	.	.	.	.	16eJ	.	.	.	16bb-yJ	.
8r	4r	4r	4r	.	4r	.	16fL	.	4f	4ff	16aaL	.
.	.	.	.	.	.	.	16c	.	.	.	16bb-y	.
16FL	.	.	.	.	.	.	16A	.	.	.	16ccc	.
16GJ	.	.	.	.	.	.	16cJ	.	.	.	16aaJ	.
16AL	8r	8r	8r	.	8r	.	16fL	.	8r	8r	8ffL	.
16G	.	.	.	.	.	.	16c	.	.	.	.	.
16F	16FL	8a	8a	.	8a	.	8aJ	.	8f	16ddL	8aaJ	.
16EJ	16EJ	.	.	.	.	.	.	.	.	16eeJ	.	.
=31	=31	=31	=31	=31	=31	=31	=31	=31	=31	=31	=31	=31
16DL	16DL	8aL	8aL	.	8aL	.	8aL	.	8fL	16ffL	[1aa	.
16E	16E	.	.	.	.	.	.	.	.	16gg	.	.
16F	16F	16f	16f	.	16f	.	16f	.	16d	16aa	.	.
16EJ	16EJ	16gJ	16gJ	.	16gJ	.	16gJ	.	16eJ	16ggJ	.	.
16DL	16DL	8aL	8aL	.	8aL	.	8aL	.	8fL	16ffL	.	.
16E	16E	.	.	.	.	.	.	.	.	16gg	.	.
16F	16F	16f	16f	.	16f	.	16f	.	16d	16aa	.	.
16EJ	16EJ	16gJ	16gJ	.	16gJ	.	16gJ	.	16eJ	16ggJ	.	.
16DL	16DL	8aL	8aL	.	8aL	.	8aL	.	8fL	16ffL	.	.
16C#	16C#	.	.	.	.	.	.	.	.	16gg	.	.
16D	16D	8dd	8dd	.	8dd	.	8dd	.	8a	16ff	.	.
16EJ	16EJ	.	.	.	.	.	.	.	.	16eeJ	.	.
16FL	16FL	8a	8a	.	8a	.	8a	.	8f	16ddL	.	.
16G	16G	.	.	.	.	.	.	.	.	16cc#	.	.
16F	16F	8ddJ	8ddJ	.	8ddJ	.	8ddJ	.	8aJ	16dd	.	.
16EJ	16EJ	.	.	.	.	.	.	.	.	16eeJ	.	.
=32	=32	=32	=32	=32	=32	=32	=32	=32	=32	=32	=32	=32
16DL	16DL	8aL	8aL	.	8aL	.	8aL	.	8fL	16ffL	2aaT_	.
16E	16E	.	.	.	.	.	.	.	.	16gg	.	.
16F	16F	16f	16f	.	16f	.	16f	.	16d	16aa	.	.
16EJ	16EJ	16gJ	16gJ	.	16gJ	.	16gJ	.	16eJ	16ggJ	.	.
16DL	16DL	8aL	8aL	.	8aL	.	8aL	.	8fL	16ffL	.	.
16E	16E	.	.	.	.	.	.	.	.	16gg	.	.
16F	16F	16f	16f	.	16f	.	16f	.	16d	16aa	.	.
16EJ	16EJ	16gJ	16gJ	.	16gJ	.	16gJ	.	16eJ	16ggJ	.	.
16DL	16DL	8aL	8aL	.	8aL	.	8aL	.	8fL	16ffL	8r	.
16C#	16C#	.	.	.	.	.	.	.	.	16gg	.	.
16D	16D	8dd	8dd	.	8dd	.	8ddJ	.	8aJ	16ff	8aaL	.
16EJ	16EJ	.	.	.	.	.	.	.	.	16eeJ	.	.
16FL	16FL	8aJ	8aJ	.	8aJ	.	16aL	.	4f	16ddL	8ddd	.
16E	16E	.	.	.	.	.	16ff	.	.	16ee	.	.
16F	16F	8d	8r	.	8ff	.	16d 16a	.	.	16dd	8aaJ	.
16DJ	16DJ	.	.	.	.	.	16ffJ	.	.	16ccJ	.	.
=33	=33	=33	=33	=33	=33	=33	=33	=33	=33	=33	=33	=33
16GL	8GL	16GL	1b-y	.	2ff	.	16gL 16b-y	.	8r	16b-yL	[2bb-y	.
16F	.	16F	.	.	.	.	16ff	.	.	16a	.	.
16G	8GG	16G	.	.	.	.	16g 16b-y	.	8ddL	16b-y	.	.
16AJ	.	16AJ	.	.	.	.	16ffJ	.	.	16ccJ	.	.
16B-yL	8r	16B-yL	.	.	.	.	16gL 16b-y	.	8gg	16ddL	.	.
16A	.	16A	.	.	.	.	16ff	.	.	16cc	.	.
16B-y	8GJ	16B-y	.	.	.	.	16g 16b-y	.	8ddJ	16dd	.	.
16GJ	.	16GJ	.	.	.	.	16ffJ	.	.	16b-yJ	.	.
16CL	16CL	8B-yL	.	.	[2ee	.	16gL 16b-y	.	[2ee	16eeL	8bb-yL]	.
16BB-y	16BB-y	.	.	.	.	.	16ee	.	.	16dd	.	.
16C	16C	8b-y	.	.	.	.	16g 16b-y	.	.	16ee	8gg	.
16DJ	16DJ	.	.	.	.	.	16eeJ	.	.	16ffJ	.	.
16EL	16EL	8r	.	.	.	.	16gL 16b-y	.	.	16ggL	8ccc	.
16D	16D	.	.	.	.	.	16ee	.	.	16ff	.	.
16E	16E	8B-yJ	.	.	.	.	16g 16b-y	.	.	16gg	8ggJ	.
16CJ	16CJ	.	.	.	.	.	16eeJ	.	.	16eeJ	.	.
=34	=34	=34	=34	=34	=34	=34	=34	=34	=34	=34	=34	=34
16FL	8FL	16EL	1a	.	2ee	.	16fL 16a	.	8eeL]]	16aaL	[2aa	.
16E	.	16D	.	.	.	.	16ee	.	.	16gg	.	.
16F	8FF	16E	.	.	.	.	16f 16a	.	8cc	16aa	.	.
16GJ	.	16FJ	.	.	.	.	16eeJ	.	.	16bb-yJ	.	.
16AL	8r	16GL	.	.	.	.	16fL 16a	.	8ff	16cccL	.	.
16G	.	16F	.	.	.	.	16ee	.	.	16bb-y	.	.
16A	8FJ	16G	.	.	.	.	16f 16a	.	8ccJ	16ccc	.	.
16FJ	.	16EJ	.	.	.	.	16eeJ	.	.	16aaJ	.	.
16BB-yL	16BB-yL	8AL	.	.	[2dd	.	16fL 16a	.	[2dd	16dddL	8aaL]	.
16AA	16AA	.	.	.	.	.	16dd	.	.	16ccc#	.	.
16BB-y	16BB-y	8a	.	.	.	.	16f 16a	.	.	16ddd	8ff	.
16CJ	16CJ	.	.	.	.	.	16ddJ	.	.	16eeeJ	.	.
16DL	16DL	8r	.	.	.	.	16fL 16a	.	.	16fffL	8bb-y	.
16C	16C	.	.	.	.	.	16dd	.	.	16eee	.	.
16D	16D	8AJ	.	.	.	.	16f 16a	.	.	16fff	8ffJ	.
16BB-yJ	16BB-yJ	.	.	.	.	.	16ddJ	.	.	16dddJ	.	.
=35	=35	=35	=35	=35	=35	=35	=35	=35	=35	=35	=35	=35
16EL	8EL	16EL	2.g	.	2dd	.	16eL	.	8ddL]]	8.gggL	[2ggT	.
16D	.	16D	.	.	.	.	16dd	.	.	.	.	.
16E	8EE	16E	.	.	.	.	16e	.	8bn	.	.	.
16FJ	.	16FJ	.	.	.	.	16ddJ	.	.	16fffJ	.	.
16GL	8r	16GL	.	.	.	.	16eL	.	8ee	16eeeL	.	.
16F	.	16F	.	.	.	.	16dd	.	.	16ddd	.	.
16G	8EJ	16G	.	.	.	.	16e	.	8bJ	16ccc#	.	.
16EJ	.	16EJ	.	.	.	.	16ddJ	.	.	16bbnJ	.	.
16AAL	16AAL	8AL	.	.	2cc#	.	16eL	.	4.cc#T	8.aaL	8ggL]	.
16GG	16GG	.	.	.	.	.	16cc#	.	.	.	.	.
16AA	16AA	8aJ	.	.	.	.	16e	.	.	.	16ff	.
16BB-yJ	16BB-yJ	.	.	.	.	.	16cc#yJ	.	.	16ggJ	16ggJ	.
16AAL	16AAL	8r	4e	.	.	.	16eL	.	.	16ffL	8aaL	.
16GG	16GG	.	.	.	.	.	16cc#y	.	.	16ee	.	.
16FF	16FF	16aL	.	.	.	.	16e	.	16ddL	16dd	8ggJ	.
16EEJ	16EEJ	16gJ	.	.	.	.	16cc#yJ	.	16eeJ	16cc#J	.	.
=36	=36	=36	=36	=36	=36	=36	=36	=36	=36	=36	=36	=36
8DDL	8DDL	8aL	4f	.	8ddL	.	8dL	.	8ffL	8ddL	8ffL	.
8D	8D	16a	.	.	16ff	.	16ff	.	8a	16ff	16ddd	.
.	.	16gJ	.	.	16eeJ	.	16eeJ	.	.	16eeJ	16ccc#J	.
8F	8F	8fL	8r	.	8ddL	.	8ddL	.	8a	8ddL	8dddL	.
8AJ	8AJ	16f	16ddL	.	16aa	.	16aa	.	8fJ	16aa	8aaJ	.
.	.	16eJ	16cc#J	.	16ggJ	.	16ggJ	.	.	16ggJ	.	.
8dL	8dL	4d	8ddL	.	8ffL	.	8ffL	.	8fL	8ffL	8aaL	.
8A	8A	.	16dd	.	8dddJ	.	8dddJ	.	8d	8dddJ	16fff	.
.	.	.	16cc#yJ	.	.	.	.	.	.	.	16eeeJ	.
8F	8F	8r	8ddL	.	16aaL	.	16aaL	.	8d	16aaL	8fffL	.
.	.	.	.	.	16gg	.	16gg	.	.	16gg	.	.
8AJ	8AJ	16aL	16dd	.	16ff	.	16ff	.	8ddJ	16ff	8aaJ	.
.	.	16gJ	16cc#yJ	.	16eeJ	.	16eeJ	.	.	16eeJ	.	.
=37	=37	=37	=37	=37	=37	=37	=37	=37	=37	=37	=37	=37
8FL	8FL	8aL	4dd	.	8dL	.	8dL	.	8ddL	8ddL	8aaL	.
8D	8D	16a	.	.	16ff	.	16ff	.	8a	16ff	16ddd	.
.	.	16gJ	.	.	16eeJ	.	16eeJ	.	.	16eeJ	16ccc#J	.
8F	8F	8fL	8r	.	8ddL	.	8ddL	.	8a	8ddL	8dddL	.
8AJ	8AJ	16f	16ddL	.	16aa	.	16aa	.	8fJ	16aa	8aaJ	.
.	.	16eJ	16cc#J	.	16ggJ	.	16ggJ	.	.	16ggJ	.	.
8dL	8dL	4d	8ddL	.	8ffL	.	8ffL	.	8fL	8ffL	8aaL	.
8A	8A	.	16dd	.	8dddJ	.	8dddJ	.	8d	8dddJ	16fff	.
.	.	.	16cc#yJ	.	.	.	.	.	.	.	16eeeJ	.
8F	8F	8r	8ddL	.	16aL	.	16aL	.	8dJ	16aL	8fff	.
.	.	.	.	.	16bn	.	16bn	.	.	16bn	.	.
8DJ	8DJ	8f	8aJ	.	16cc#	.	16cc#	.	8aa	16cc#	8r	.
.	.	.	.	.	16ddJ	.	16ddJ	.	.	16ddJ	.	.
=38	=38	=38	=38	=38	=38	=38	=38	=38	=38	=38	=38	=38
8AL	8AL	8e	8dd-	.	16eeL	.	16eeL	.	16eeL	16eeL	8r	.
.	.	.	.	.	16ff	.	16ff	.	16ff	16ff	.	.
8C#	8C#	4A	4ee	.	16gg	.	16gg	.	16gg	16gg	16aL	.
.	.	.	.	.	16eeJ	.	16eeJ	.	16eeJ	16eeJ	16aJ	.
8D	8D	.	.	.	16ffL	.	16ffL	.	16ffL	16ffL	4a	.
.	.	.	.	.	16dd	.	16dd	.	16dd	16dd	.	.
8FJ	8FJ	8f	8ddn	.	16a	.	16a	.	16a	16a	.	.
.	.	.	.	.	16ddJ	.	16ddJ	.	16ddJ	16ddJ	.	.
8AL	8AL	8e	8dd-L	.	16eeL	.	16eeL	.	16eeL	16eeL	8r	.
.	.	.	.	.	16ff	.	16ff	.	16ff	16ff	.	.
8C#y	8C#y	4A	8ee	.	16gg	.	16gg	.	16gg	16gg	16aL	.
.	.	.	.	.	16eeJ	.	16eeJ	.	16eeJ	16eeJ	16aJ	.
8D	8D	.	8ddn	.	16ffL	.	16ffL	.	16ffL	16ffL	4a	.
.	.	.	.	.	16dd	.	16dd	.	16dd	16dd	.	.
8FJ	8FJ	8A	8ddJ	.	8aa`>J	.	8aa`>J	.	8aa`>J	8aa`>J	.	.
=39	=39	=39	=39	=39	=39	=39	=39	=39	=39	=39	=39	=39
8B-yL	8B-yL	8dL	8ddL	.	(>16ggL	.	(>16ggL	.	(>16ggL	(>16ggL	8r	.
.	.	.	.	.	16ff)	.	16ff)	.	16ff	16ff	.	.
16F	16F	8f	8a	.	(>16ee	.	(>16ee	.	16ee	16ee	16aL	.
16GJ	16GJ	.	.	.	16ddJ)	.	16ddJ)	.	16ddJ)	16ddJ)	16aJ	.
8AL	8AL	8f	8a	.	8aL	.	8aL	.	8aL	8aL	8aL	.
8AAJ	8AAJ	8eJ	8gJ	.	8cc#J	.	8cc#J	.	8cc#J	8cc#J	8aJ	.
8DL	8DL	4d	4f	.	4dd	.	8ddL	.	8ddL	16ddL	4f	.
.	.	.	.	.	.	.	.	.	.	16ff	.	.
8DDJ	8DDJ	.	.	.	.	.	16ccn	.	16ccn	16gg	.	.
.	.	.	.	.	.	.	16b-yJ	.	16b-yJ	16aaJ	.	.
8r	8r	8r	8r	.	8r	.	16aL	.	16aL	16bbnL	8r	.
.	.	.	.	.	.	.	16g	.	16g	16ccc#	.	.
8A	8A	16dL	16dL	.	16dL	.	16f	.	16f	16ddd	8aa	.
.	.	16c#J	16c#J	.	16c#J	.	16eJ	.	16eJ	16eeeJ	.	.
=40	=40	=40	=40	=40	=40	=40	=40	=40	=40	=40	=40	=40
8dL	8dL	8dL	8dL	.	8dL	.	16dL	.	16dL	16fffL	8aaL	.
.	.	.	.	.	.	.	16e	.	16e	16eee	.	.
8A	8A	16d	16d	.	16d	.	16f	.	16f	16ddd	16ff	.
.	.	16c#J	16c#J	.	16c#J	.	16eJ	.	16eJ	16eeeJ	16ggJ	.
8F	8F	8dL	8dL	.	8dL	.	16dL	.	16dL	16fffL	8aaL	.
.	.	.	.	.	.	.	16e	.	16e	16eee	.	.
8AJ	8AJ	16d	16d	.	16d	.	16f	.	16f	16ddd	16ff	.
.	.	16c#yJ	16c#yJ	.	16c#yJ	.	16eJ	.	16eJ	16eeeJ	16ggJ	.
8DL	8DL	8dL	8dL	.	8dL	.	16dL	.	16dL	16fffL	8aaL	.
.	.	.	.	.	.	.	16e	.	16e	16ggg	.	.
8A	8A	16d	16d	.	16d	.	16d	.	16d	16fff	8ddd	.
.	.	16c#yJ	16c#yJ	.	16c#yJ	.	16eJ	.	16eJ	16eeeJ	.	.
8F	8FJ	8d	8d	.	8d	.	16fL	.	16fL	16dddL	8aa	.
.	.	.	.	.	.	.	16g	.	16g	16ccc#	.	.
8AJ	8A	16dL	16dL	.	16dL	.	16f	.	16f	16ddd	8dddJ	.
.	.	16c#yJ	16c#yJ	.	16c#yJ	.	16eJ	.	16eJ	16eeeJ	.	.
=41	=41	=41	=41	=41	=41	=41	=41	=41	=41	=41	=41	=41
8dL	8dL	8dL	8dL	.	8dL	.	16dL	.	16dL	16fffL	8aaL	.
.	.	.	.	.	.	.	16e	.	16e	16eee	.	.
8A	8A	16d	16d	.	16d	.	16f	.	16f	16ddd	16ff	.
.	.	16c#J	16c#J	.	16c#J	.	16eJ	.	16eJ	16eeeJ	16ggJ	.
8F	8F	8dL	8dL	.	8dL	.	16dL	.	16dL	16fffL	8aaL	.
.	.	.	.	.	.	.	16e	.	16e	16eee	.	.
8AJ	8AJ	16d	16d	.	16d	.	16f	.	16f	16ddd	16ff	.
.	.	16c#yJ	16c#yJ	.	16c#yJ	.	16eJ	.	16eJ	16eeeJ	16ggJ	.
8DL	8DL	4d	4d	.	4d	.	16dL	.	16dL	16fffL	8aaL	.
.	.	.	.	.	.	.	16c#	.	16c#	16ggg	.	.
8DDJ	8DDJ	.	.	.	.	.	16d	.	16d	16fff	8dddJ	.
.	.	.	.	.	.	.	16eJ	.	16eJ	16eeeJ	.	.
8r	8r	8r	8r	.	8r	.	16fL	.	16fL	8dddL	8aaL	.
.	.	.	.	.	.	.	16g	.	16g	.	.	.
8D	8D	16gL	16gL	.	16gL	.	16a	.	16a	8dddJ	16ddd	.
.	.	16f#J	16f#J	.	16f#J	.	16f#J	.	16f#J	.	16cccJ	.
=42	=42	=42	=42	=42	=42	=42	=42	=42	=42	=42	=42	=42
8GL	8GL	8gL	8gL	.	8gL	.	16gL	.	16gL	8dddL	16bbnL	.
.	.	.	.	.	.	.	16a	.	16a	.	16aa	.
8D	8D	16g	16g	.	16g	.	16bn	.	16bn	16bbn	16gg	.
.	.	16f#J	16f#J	.	16f#J	.	16aJ	.	16aJ	16cccJ	16aaJ	.
8BBn	8BBn	8gL	8gL	.	8gL	.	16gL	.	16gL	8dddL	16bbL	.
.	.	.	.	.	.	.	16a	.	16a	.	16aa	.
8DJ	8DJ	16g	16g	.	16g	.	16b	.	16b	16bb	16gg	.
.	.	16f#yJ	16f#yJ	.	16f#yJ	.	16aJ	.	16aJ	16cccJ	16aaJ	.
8GGL	8GGL	8gL	8gL	.	8gL	.	16gL	.	16gL	8dddL	16bbL	.
.	.	.	.	.	.	.	16f#	.	16f#	.	16ccc	.
8D	8D	16g	16g	.	16g	.	16g	.	16g	8ggg	16bb	.
.	.	16f#yJ	16f#yJ	.	16f#yJ	.	16aJ	.	16aJ	.	16aaJ	.
8BBJ	8BBJ	8g	8g	.	8g	.	16bL	.	16bL	8ddd	16ggL	.
.	.	.	.	.	.	.	16cc	.	16cc	.	16aa	.
8D	8D	16gL	16gL	.	16gL	.	16b	.	16b	8gggJ	16gg	.
.	.	16f#yJ	16f#yJ	.	16f#yJ	.	16aJ	.	16aJ	.	16aaJ	.
=43	=43	=43	=43	=43	=43	=43	=43	=43	=43	=43	=43	=43
8GL	8GL	8gL	8gL	.	8gL	.	16gL	.	16gL	8dddL	16bbnL	.
.	.	.	.	.	.	.	16a	.	16a	.	16aa	.
8D	8D	16g	16g	.	16g	.	16bn	.	16bn	16bbn	16gg	.
.	.	16f#J	16f#J	.	16f#J	.	16aJ	.	16aJ	16cccJ	16aaJ	.
8BBn	8BBn	8gL	8gL	.	8gL	.	16gL	.	16gL	8dddL	16bbL	.
.	.	.	.	.	.	.	16a	.	16a	.	16aa	.
8DJ	8DJ	16g	16g	.	16g	.	16b	.	16b	16bb	16gg	.
.	.	16f#yJ	16f#yJ	.	16f#yJ	.	16aJ	.	16aJ	16cccJ	16aaJ	.
8GGL	8GGL	4g	4g	.	4g	.	16gL	.	16gL	8dddL	16bbL	.
.	.	.	.	.	.	.	16f#	.	16a	.	16ccc	.
8GJ	8GJ	.	.	.	.	.	16g	.	16b	8gggJ	16bb	.
.	.	.	.	.	.	.	16aJ	.	16ccJ	.	16aaJ	.
8r	8r	8r	8r	.	8r	.	16bL	.	8ddL	8ggL	4gg	.
.	.	.	.	.	.	.	16cc	.	.	.	.	.
8G	8G	16ccL	16ccL	.	16ccL	.	16dd	.	8ggJ	16ggg	.	.
.	.	16bnJ	16bnJ	.	16bnJ	.	16bJ	.	.	16fffJ	.	.
=44	=44	=44	=44	=44	=44	=44	=44	=44	=44	=44	=44	=44
8cL	8cL	8ccL	8ccL	.	8ccL	.	16ccL	.	8ggL	16eeeL	1r	.
.	.	.	.	.	.	.	16dd	.	.	16ddd	.	.
8G	8G	16cc	16cc	.	16cc	.	16ee	.	16ee	16ccc	.	.
.	.	16bnJ	16bnJ	.	16bnJ	.	16ddJ	.	16ffJ	16dddJ	.	.
8E	8E	8ccL	8ccL	.	8ccL	.	16ccL	.	8ggL	16eeeL	.	.
.	.	.	.	.	.	.	16dd	.	.	16ddd	.	.
8GJ	8GJ	16cc	16cc	.	16cc	.	16ee	.	16ee	16ccc	.	.
.	.	16bJ	16bJ	.	16bJ	.	16ddJ	.	16ffJ	16dddJ	.	.
8CL	8CL	8ccL	8ccL	.	8ccL	.	16ccL	.	8ggL	16eeeL	.	.
.	.	.	.	.	.	.	16bn	.	.	16fff	.	.
8G	8G	16cc	16cc	.	16cc	.	16cc	.	8ccc	16eee	.	.
.	.	16bJ	16bJ	.	16bJ	.	16ddJ	.	.	16dddJ	.	.
8EJ	8EJ	8cc	8cc	.	8cc	.	16eeL	.	8gg	16cccL	.	.
.	.	.	.	.	.	.	16ff	.	.	16bbn	.	.
8G	8G	16ccL	16ccL	.	16ccL	.	16ee	.	8cccJ	16ccc	.	.
.	.	16bJ	16bJ	.	16bJ	.	16ddJ	.	.	16dddJ	.	.
=45	=45	=45	=45	=45	=45	=45	=45	=45	=45	=45	=45	=45
8cL	8cL	8ccL	8ccL	.	8ccL	.	16ccL	.	8ggL	16eeeL	2r	.
.	.	.	.	.	.	.	16dd	.	.	16ddd	.	.
8G	8G	16cc	16cc	.	16cc	.	16ee	.	16ee	16ccc	.	.
.	.	16bnJ	16bnJ	.	16bnJ	.	16ddJ	.	16ffJ	16dddJ	.	.
8E	8E	8ccL	8ccL	.	8ccL	.	16ccL	.	8ggL	16eeeL	.	.
.	.	.	.	.	.	.	16dd	.	.	16ddd	.	.
8GJ	8GJ	16cc	16cc	.	16cc	.	16ee	.	16ee	16ccc	.	.
.	.	16bJ	16bJ	.	16bJ	.	16ddJ	.	16ffJ	16dddJ	.	.
8CL	8CL	4cc	4cc	.	4cc	.	16ccL	.	8ggL	16eeeL	4r	.
.	.	.	.	.	.	.	16bn	.	.	16fff	.	.
8GJ	8CC	.	.	.	.	.	16cc	.	8ccc	16eee	.	.
.	.	.	.	.	.	.	16ddJ	.	.	16dddJ	.	.
16cL	8r	8r	8r	.	8r	.	16eeL	.	8r	8cccL	8r	.
16B-y	.	.	.	.	.	.	16ff	.	.	.	.	.
16A	8CJ	16fL	16fL	.	16fL	.	16gg	.	8ccJ	8cccJ	8cc	.
16GJ	.	16eJ	16eJ	.	16eJ	.	16eeJ	.	.	.	.	.
=46	=46	=46	=46	=46	=46	=46	=46	=46	=46	=46	=46	=46
16FL	16FL	8fL	8fL	.	8fL	.	16aaL	.	8ccL	8cccL	8ffL	.
16G	16G	.	.	.	.	.	16gg	.	.	.	.	.
16A	16A	16f	16f	.	16f	.	16ff	.	16ff	16aa	8cc	.
16GJ	16GJ	16eJ	16eJ	.	16eJ	.	16ggJ	.	16eeJ	16bb-yJ	.	.
16FL	16FL	8fL	8fL	.	8fL	.	16aaL	.	8ffL	8cccL	8a	.
16G	16G	.	.	.	.	.	16gg	.	.	.	.	.
16A	16A	16f	16f	.	16f	.	16ff	.	8ccJ	16aa	8ccJ	.
16GJ	16GJ	16eJ	16eJ	.	16eJ	.	16ggJ	.	.	16bb-yJ	.	.
16FL	16FL	8fL	8fL	.	8fL	.	16aaL	.	8ccL	8cccL	8fL	.
16E	16E	.	.	.	.	.	16bb-y	.	.	.	.	.
16F	16F	16f	16f	.	16f	.	16aa	.	16ccc	8fff	8cc	.
16GJ	16GJ	16eJ	16eJ	.	16eJ	.	16ggJ	.	16bb-yJ	.	.	.
16AL	16AL	8f	8f	.	8f	.	16ffL	.	8cccL	8ccc	8a	.
16B-y	16B-yJ	.	.	.	.	.	16ee	.	.	.	.	.
16A	16AL	16fL	16fL	.	16fL	.	16ff	.	8ccJ	8fffJ	8ccJ	.
16GJ	16GJ	16eJ	16eJ	.	16eJ	.	16ggJ	.	.	.	.	.
=47	=47	=47	=47	=47	=47	=47	=47	=47	=47	=47	=47	=47
16FL	16FL	8fL	8fL	.	8fL	.	16aaL	.	8ccL	8cccL	8ffL	.
16G	16G	.	.	.	.	.	16gg	.	.	.	.	.
16A	16A	16f	16f	.	16f	.	16ff	.	16ff	16aa	8cc	.
16GJ	16GJ	16eJ	16eJ	.	16eJ	.	16ggJ	.	16eeJ	16bb-yJ	.	.
16FL	16FL	8fL	8fL	.	8fL	.	16aaL	.	8ffL	8cccL	8a	.
16G	16G	.	.	.	.	.	16gg	.	.	.	.	.
16A	16A	16f	16f	.	16f	.	16ff	.	8ccJ	16aa	8ccJ	.
16GJ	16GJ	16eJ	16eJ	.	16eJ	.	16ggJ	.	.	16bb-yJ	.	.
16FL	16FL	4f	4f	.	4f	.	16aaL	.	8ccL	8cccL	4f	.
16E	16E	.	.	.	.	.	16bb-y	.	.	.	.	.
16F	16F	.	.	.	.	.	16aa	.	16ccc	8fff	.	.
16GJ	16GJ	.	.	.	.	.	16ggJ	.	16bb-yJ	.	.	.
8A	8A	8r	8r	.	8r	.	16ffL	.	8cccL	8ccc	8r	.
.	.	.	.	.	.	.	16gg	.	.	.	.	.
8F	8F	8a	8cc	.	8ff	.	16aa	.	8ffJ	8aaJ	16ccL	.
.	.	.	.	.	.	.	16ffJ	.	.	.	16ccJ	.
=48	=48	=48	=48	=48	=48	=48	=48	=48	=48	=48	=48	=48
8EL	8EL	8gL	16ccL	.	16ggL	.	16ggL	.	16ggL	16ggL	4cc	.
.	.	.	16dd	.	16ff	.	16ff	.	16ff	16ff	.	.
8G	8G	8b-y	16ee	.	16gg	.	16gg	.	16gg	16gg	.	.
.	.	.	16ffJ	.	16aaJ	.	16aaJ	.	16aaJ	16aaJ	.	.
8C	8C	8e	8ggL	.	16bb-yL	.	16bb-yL	.	16bb-yL	16bb-yL	8r	.
.	.	.	.	.	16aa	.	16aa	.	16aa	16aa	.	.
8FJ	8FJ	8ccJ	8ffJ	.	16bb-y	.	16bb-y	.	16bb-y	16bb-y	16ccL	.
.	.	.	.	.	16aaJ	.	16aaJ	.	16aaJ	16aaJ	16ccJ	.
8EL	8EL	4g	4cc	.	16ggL	.	16ggL	.	16ggL	16ggL	4cc	.
.	.	.	.	.	16ff	.	16ff	.	16ff	16ff	.	.
8G	8G	.	.	.	16ee	.	16ee	.	16ee	16ee	.	.
.	.	.	.	.	16ddJ	.	16ddJ	.	16ddJ	16ddJ	.	.
8C	8C	8r	8r	.	16ccL	.	16ccL	.	16ccL	16ccL	8r	.
.	.	.	.	.	16ff	.	16ff	.	16ff	16ff	.	.
8AJ	8AJ	8a	8cc	.	16ee	.	16ee	.	16ee	16ee	16ccL	.
.	.	.	.	.	16ffJ	.	16ffJ	.	16ffJ	16ffJ	16ccJ	.
=49	=49	=49	=49	=49	=49	=49	=49	=49	=49	=49	=49	=49
8EL	8EL	8gL	16ccL	.	16ggL	.	16ggL	.	16ggL	16ggL	4cc	.
.	.	.	16dd	.	16ff	.	16ff	.	16ff	16ff	.	.
8G	8G	8b-y	16ee	.	16gg	.	16gg	.	16gg	16gg	.	.
.	.	.	16ffJ	.	16aaJ	.	16aaJ	.	16aaJ	16aaJ	.	.
8C	8C	8e	8ggL	.	16bb-yL	.	16bb-yL	.	16bb-yL	16bb-yL	8r	.
.	.	.	.	.	16aa	.	16aa	.	16aa	16aa	.	.
8FJ	8FJ	8ccJ	8ffJ	.	16bb-y	.	16bb-y	.	16bb-y	16bb-y	16ccL	.
.	.	.	.	.	16aaJ	.	16aaJ	.	16aaJ	16aaJ	16ccJ	.
8EL	8EL	4g	4cc	.	16ggL	.	16ggL	.	16ggL	16ggL	4cc	.
.	.	.	.	.	16ff	.	16ff	.	16ff	16ff	.	.
8G	8G	.	.	.	16ee	.	16ee	.	16ee	16ee	.	.
.	.	.	.	.	16ddJ	.	16ddJ	.	16ddJ	16ddJ	.	.
8C	8C	4r	4r	.	16ccL	.	16ccL	.	16ccL	16ccL	4r	.
.	.	.	.	.	16b-y	.	16b-y	.	16b-y	16dd	.	.
8DJ	8DJ	.	.	.	16a	.	16a	.	16a	16cc	.	.
.	.	.	.	.	16gJ	.	16gJ	.	16b-yJ	16b-yJ	.	.
=50	=50	=50	=50	=50	=50	=50	=50	=50	=50	=50	=50	=50
(>8E-L	8E-	8A	8c	.	8f	p	8fL	p	(>8ccL	8aL	8r	.
8E-y	8r	8r	8r	.	4cc	.	16a	.	8cc	16ccc	8fL	.
.	.	.	.	.	.	.	16gJ	.	.	16bb-yJ	.	.
8E-y	8E-y	8c	8f	.	.	.	8fL	.	8cc	16aaL	8a	.
.	.	.	.	.	.	.	.	.	.	16bb-y	.	.
8E-yJ)	8r	8r	8r	.	4a	.	16cc	.	8ccJ)	16aa	8ccJ	.
.	.	.	.	.	.	.	16b-yJ	.	.	16ggJ	.	.
(>8E-yL	8E-y	8f	8a	.	.	.	8aL	.	(>8ccL	16ffL	8ffL	.
.	.	.	.	.	.	.	.	.	.	16cc	.	.
8E-y	8r	8r	8r	.	4f	.	8ffJ	.	8cc	16dd	8cc	.
.	.	.	.	.	.	.	.	.	.	16eeJ	.	.
8E-y	8E-y	8a	8cc	.	.	.	16ccL	.	8cc	16ffL	8a	.
.	.	.	.	.	.	.	16b-y	.	.	16gg	.	.
8E-yJ)	8r	8r	8r	.	[8cc	.	16a	.	8ccJ)	16aa	8fJ	.
.	.	.	.	.	.	.	16gJ	.	.	16bb-yJ	.	.
=51	=51	=51	=51	=51	=51	=51	=51	=51	=51	=51	=51	=51
(>8DL	8D	8f#	8d	f	8cc]	.	(<8f#L 8a	.	8aL	16cccL	(>8aaL	p
.	.	.	.	.	.	.	.	.	.	16ddd	.	.
8D	8r	8r	8r	.	4a	.	8f#y 8a	.	16cc	16eee-	8aa	.
.	.	.	.	.	.	.	.	.	16b-yJ	16dddJ	.	.
8D	8D	8d	8f#	.	.	.	8f#y 8a	.	8aL	16cccL	8aa	.
.	.	.	.	.	.	.	.	.	.	16ddd	.	.
8DJ)	8r	8r	8r	.	4f#	.	8f#yJ) 8a	.	16ee-	16ccc	8aaJ)	.
.	.	.	.	.	.	.	.	.	16ddJ	16bb-yJ	.	.
(>8DL	8D	8f#y	8a	.	.	.	(<8f#yL 8a	.	8ccL	16aaL	(>8aaL	.
.	.	.	.	.	.	.	.	.	.	16gg	.	.
8D	8r	8r	8r	.	4d	.	8f#y 8a	.	8aaJ	16ff#	8aa	.
.	.	.	.	.	.	.	.	.	.	16ggJ	.	.
8D	8D	8a	8cc	.	.	.	8f#y 8a	.	16ddL	16aaL	8aa	.
.	.	.	.	.	.	.	.	.	16cc	16bb-y	.	.
8DJ)	8r	8r	8r	.	[8dd	.	8f#yJ) 8a	.	16b-y	16ccc	8aaJ)	.
.	.	.	.	.	.	.	.	.	16aJ	16dddJ	.	.
=52	=52	=52	=52	=52	=52	=52	=52	=52	=52	=52	=52	=52
(>8FL	8F	8Bn	8d	.	8dd]	.	16gL	f	8bnL	8ggL	(>8dddL	.
.	.	.	.	.	.	.	16bn	.	.	.	.	.
8F	8r	8r	8r	.	4bn	.	16dd	.	8g	16bbn	8ddd	.
.	.	.	.	.	.	.	16ccJ	.	.	16aaJ	.	.
8F	8F	8d	8g	.	.	.	16bL	.	8b	8ggL	8ddd	.
.	.	.	.	.	.	.	16cc	.	.	.	.	.
8FJ)	8r	8r	8r	.	4g	.	16b	.	8ddJ	16ddd	8dddJ)	.
.	.	.	.	.	.	.	16aJ	.	.	16cccJ	.	.
(>8FL	8F	8g	8bn	.	.	.	16gL	.	8ggL	8bbL	(>8dddL	.
.	.	.	.	.	.	.	16d	.	.	.	.	.
8F	8r	8r	8r	.	4d	.	16e	.	8dd	8gggJ	8ddd	.
.	.	.	.	.	.	.	16fJ	.	.	.	.	.
8F	8F	8bn	8dd	.	.	.	16gL	.	8b	16dddL	8ddd	.
.	.	.	.	.	.	.	16f	.	.	16ccc	.	.
8FJ)	8r	8r	8r	.	[8dd	.	16g	.	8gJ	16bb	8dddJ)	.
.	.	.	.	.	.	.	16aJ	.	.	16aaJ	.	.
=53	=53	=53	=53	=53	=53	=53	=53	=53	=53	=53	=53	=53
(>8EL	8E	8g#	8e	f	8dd]	p	8bnL	p	(>8bnL	(>8gg#L	16dddL	.
.	.	.	.	.	.	.	.	.	.	.	16eee-	.
8E	8r	8r	8r	.	4bn	.	16dd	.	8b	8gg#y	16fff	.
.	.	.	.	.	.	.	16ccJ	.	.	.	16eee-yJ	.
8E	8E	8e	8g#	.	.	.	8bL	.	8b	8gg#y	16dddL	.
.	.	.	.	.	.	.	.	.	.	.	16eee-y	.
8EJ)	8r	8r	8r	.	4g#	.	16ff	.	8bJ)	8gg#yJ)	16ddd	.
.	.	.	.	.	.	.	16eeJ	.	.	.	16cccJ	.
(>8EL	8E	8g#y	8bn	.	.	.	8ddL	.	(>8bL	(>8gg#yL	16bbnL	.
.	.	.	.	.	.	.	.	.	.	.	16ccc	.
8E	8r	8r	8r	.	4e	.	8bbnJ	.	8b	8gg#y	16ddd	.
.	.	.	.	.	.	.	.	.	.	.	16cccJ	.
8E	8E	8bn	8dd	.	.	.	16eeL	.	8b	8gg#y	16bbL	.
.	.	.	.	.	.	.	16dd	.	.	.	16ccc	.
8EJ)	8r	8r	8r	.	[8ee	.	16cc	.	8bJ)	8gg#yJ)	16ddd	.
.	.	.	.	.	.	.	16bJ	.	.	.	16eee-yJ	.
=54	=54	=54	=54	=54	=54	=54	=54	=54	=54	=54	=54	=54
(>8GL	8G	8c#	8e	.	8ee]	f	8cc#L	.	8aL	16aaL	4aa	.
.	.	.	.	.	.	.	.	.	.	16ccc#	.	.
8G	8r	8r	8r	.	4cc#	.	8a	.	16cc#	16eee	.	.
.	.	.	.	.	.	.	.	.	16bnJ	16dddJ	.	.
8G	8G	8e	8a	.	.	.	8cc#y	.	8aL	16ccc#yL	4r	.
.	.	.	.	.	.	.	.	.	.	16ddd	.	.
8GJ)	8r	8r	8r	.	4a	.	8eeJ	.	16ee	16ccc#y	.	.
.	.	.	.	.	.	.	.	.	16ddJ	16bbnJ	.	.
(>8GL	8G	8a	8cc#	.	.	.	8aaL	.	8cc#yL	16aaL	2r	.
.	.	.	.	.	.	.	.	.	.	16ee	.	.
8G	8r	8r	8r	.	4e	.	8ee	.	8aaJ	16ff	.	.
.	.	.	.	.	.	.	.	.	.	16ggJ	.	.
8G	8G	8cc#	8ee	.	.	.	8cc#y	.	16eeL	16aaL	.	.
.	.	.	.	.	.	.	.	.	16dd	16bb	.	.
8GJ)	8r	8r	8r	.	[8a	.	8aJ	.	16cc#y	16ccc#y	.	.
.	.	.	.	.	.	.	.	.	16bJ	16dddJ	.	.
=55	=55	=55	=55	=55	=55	=55	=55	=55	=55	=55	=55	=55
(>8FL	8F	8a	8f	f	8a]	f	(>8ccnL	.	(<8aL	16eee-L	8ccL	f
.	.	.	.	.	.	.	.	.	.	16fff	.	.
8F	8r	8r	8r	.	4ee-	.	8cc	.	8a	16ggg	16ee-	.
.	.	.	.	.	.	.	.	.	.	16fffJ	16ddJ	.
8F	8F	8f	8a	.	.	.	8cc	.	8a	16eee-yL	8ccL	.
.	.	.	.	.	.	.	.	.	.	16ddd	.	.
8FJ)	8r	8r	8r	.	4cc	.	8ccJ)	.	8aJ)	16ccc	16aa	.
.	.	.	.	.	.	.	.	.	.	16bb-yJ	16ggJ	.
(>8FL	8F	8a	8cc	.	.	.	(>8ccL	.	(<8aL	16aaL	8ffL	.
.	.	.	.	.	.	.	.	.	.	16bb-y	.	.
8F	8r	8r	8r	.	4a	.	8cc	.	8a	16aa	16ccc	.
.	.	.	.	.	.	.	.	.	.	16ggJ	16bb-yJ	.
8F	8F	8ccn	8ee-	.	.	.	8ccJ)	.	8aJ)	16ffL	16aaL	.
.	.	.	.	.	.	.	.	.	.	16ee-	16gg	.
8FJ)	8r	8r	8r	.	8cc	.	8aa	.	8ff	16dd	16ff	.
.	.	.	.	.	.	.	.	.	.	16ccJ	16ee-yJ	.
=56	=56	=56	=56	=56	=56	=56	=56	=56	=56	=56	=56	=56
8BB-yL	8BB-yL	4b-y	4f	.	4dd	.	8bb-yL	f	8ddL	4b-y	8ffL	.
16D	16D	.	.	.	.	.	8ff	.	16b-y	.	16bb-y	.
16CJ	16CJ	.	.	.	.	.	.	.	16ccJ	.	16aaJ	.
8BB-yL	8BB-yL	8r	8r	.	8r	.	8ff	.	8ddL	4r	8bb-yL	.
16F	16F	16B-yL	16B-yL	.	16B-yL	.	8ddJ	.	8bb-yJ	.	8ffJ	.
16E-J	16E-J	16AJ	16AJ	.	16AJ	.	.	.	.	.	.	.
8DL	8DL	8B-yL	8B-yL	.	8B-yL	.	8ddL	.	8bb-yL	8r	8ffL	.
8B-yJ	8B-yJ	16B-y	16B-y	.	16B-y	.	8b-y	.	8ff	8bb-yL	16ddd	.
.	.	16AJ	16AJ	.	16AJ	.	.	.	.	.	16cccJ	.
16FL	16FL	8B-yL	8B-yL	.	8B-yL	.	8b-y	.	8ff	8bb-y	8dddL	.
16E-y	16E-y	.	.	.	.	.	.	.	.	.	.	.
16D	16D	16B-y	16B-y	.	16B-y	.	8bb-yJ	.	8ddJ	8ffJ	8ffJ	.
16CJ	16CJ	16AJ	16AJ	.	16AJ	.	.	.	.	.	.	.
=57	=57	=57	=57	=57	=57	=57	=57	=57	=57	=57	=57	=57
8BB-yL	8BB-yL	4B-y	4B-y	.	4B-y	.	8bb-yL	.	8ddL	8ffL	8ffL	.
16D	16D	.	.	.	.	.	8ff	.	8b-y	8dd	16bb-y	.
16CJ	16CJ	.	.	.	.	.	.	.	.	.	16aaJ	.
8BB-yL	8BB-yL	8r	8r	.	8r	.	8ff	.	8b-y	8dd	8bb-yL	.
16F	16F	16B-yL	16B-yL	.	16B-yL	.	8ddJ	.	8bb-yJ	8b-yJ	8ffJ	.
16E-J	16E-J	16AJ	16AJ	.	16AJ	.	.	.	.	.	.	.
8DL	8DL	8B-yL	8B-yL	.	8B-yL	.	8ddL	.	8bb-yL	8b-yL	8ffL	.
8B-yJ	8B-yJ	16B-y	16B-y	.	16B-y	.	8b-y	.	8ff	8bb-y	16ddd	.
.	.	16AJ	16AJ	.	16AJ	.	.	.	.	.	16cccJ	.
16FL	16FL	8B-y	8B-y	.	8B-y	.	8b-yJ	.	8ffJ	8bb-yJ	8ddd	.
16E-y	16E-y	.	.	.	.	.	.	.	.	.	.	.
16D	16D	8d	8b-y	.	8ff	.	8ff	.	8ff	8ff	16ffL	.
16E-yJ	16E-yJ	.	.	.	.	.	.	.	.	.	16ffJ	.
=58	=58	=58	=58	=58	=58	=58	=58	=58	=58	=58	=58	=58
8FL	8FL	8c	8a	.	16ccL	.	16ccL	.	16ccL	16ccL	4ff	.
.	.	.	.	.	16dd	.	16dd	.	16dd	16dd	.	.
8AA	8AA	4f	4cc	.	16ee-	.	16ee-	.	16ee-	16ee-	.	.
.	.	.	.	.	16ccJ	.	16ccJ	.	16ccJ	16ccJ	.	.
8BB-y	8BB-y	.	.	.	16ddL	.	16ddL	.	16ddL	16ddL	8r	.
.	.	.	.	.	16b-y	.	16b-y	.	16b-y	16b-y	.	.
8DJ	8DJ	8d	8b-y	.	16f	.	16f	.	16f	16f	16fL	.
.	.	.	.	.	16b-yJ	.	16b-yJ	.	16b-yJ	16b-yJ	16fJ	.
8FL	8FL	8c	8aL	.	16ccL	.	16ccL	.	16ccL	16ccL	4f	.
.	.	.	.	.	16dd	.	16dd	.	16dd	16dd	.	.
8AA	8AA	4f	8cc	.	16ee-y	.	16ee-y	.	16ee-y	16ee-y	.	.
.	.	.	.	.	16ccJ	.	16ccJ	.	16ccJ	16ccJ	.	.
8BB-y	8BB-y	.	8b-y	.	16ddL	.	16ddL	.	16ddL	16ddL	8r	.
.	.	.	.	.	16b-y	.	16b-y	.	16b-y	16b-y	.	.
8DJ	8DJ	8f	8b-yJ	.	8ff`>J	.	8ff`>J	.	8ff`>J	8ff`>J	16ffL	.
.	.	.	.	.	.	.	.	.	.	.	16ffJ	.
=59	=59	=59	=59	=59	=59	=59	=59	=59	=59	=59	=59	=59
8GL	8GL	8B-yL	8b-yL	.	(>16ee-L	.	(>16ee-L	.	(>16ee-L	(>16ee-L	16bb-yL	.
.	.	.	.	.	16dd)	.	16dd)	.	16dd	16dd	16ccc	.
8E-	8E-	8e-	8g	.	(>16cc	.	(>16cc	.	16cc	16cc	16bb-y	.
.	.	.	.	.	16b-yJ)	.	16b-yJ)	.	16b-yJ)	16b-yJ)	16cccJ	.
8F	8F	8A	8f	.	8fL	.	8fL	.	8fL	8fL	8.cccL	.
8FFJ	8FFJ	8cJ	8fJ	.	8aJ	.	8aJT	.	8aJT	8aJ	.	.
.	.	.	.	.	.	.	.	.	.	.	16bb-yJ	.
8BB-yL	4BB-y	4d	4f	.	4b-y	.	8b-yL	.	4b-y	4b-y	4bb-y	.
8C	.	.	.	.	.	.	16a	.	.	.	.	.
.	.	.	.	.	.	.	16gJ	.	.	.	.	.
8D	4r	4r	4r	.	4r	.	16fL	.	4r	8r	4r	.
.	.	.	.	.	.	.	16e-	.	.	.	.	.
8BB-yJ	.	.	.	.	.	.	16d	.	.	8ff	.	.
.	.	.	.	.	.	.	16cJ	.	.	.	.	.
=60	=60	=60	=60	=60	=60	=60	=60	=60	=60	=60	=60	=60
8E-L	1r	1r	1r	.	1r	.	16B-yL	.	1r	16ggL	1r	.
.	.	.	.	.	.	.	16e-	.	.	16aa	.	.
8D	.	.	.	.	.	.	16B-y	.	.	16gg	.	.
.	.	.	.	.	.	.	16e-yJ	.	.	16aaJ	.	.
8C	.	.	.	.	.	.	16cL	.	.	8.aaLT	.	.
.	.	.	.	.	.	.	16e-y	.	.	.	.	.
8FJ	.	.	.	.	.	.	16c	.	.	.	.	.
.	.	.	.	.	.	.	16e-yJ	.	.	32gg	.	.
.	.	.	.	.	.	.	.	.	.	32aaJ	.	.
8DL	.	.	.	.	.	.	16dL	.	.	8bb-yL	.	.
.	.	.	.	.	.	.	16f	.	.	.	.	.
8C	.	.	.	.	.	.	16d	.	.	16b-y	.	.
.	.	.	.	.	.	.	16fJ	.	.	16ccJ	.	.
8BB-y	.	.	.	.	.	.	16dL	.	.	16ddL	.	.
.	.	.	.	.	.	.	16b-y	.	.	16ee-	.	.
8DJ	.	.	.	.	.	.	16d	.	.	16ff	.	.
.	.	.	.	.	.	.	16b-yJ	.	.	16ddJ	.	.
=61	=61	=61	=61	=61	=61	=61	=61	=61	=61	=61	=61	=61
4E-	1r	1r	1r	.	1r	.	16cL	.	1r	16ggL	1r	.
.	.	.	.	.	.	.	16b-y	.	.	16ee-	.	.
.	.	.	.	.	.	.	16c	.	.	16cc	.	.
.	.	.	.	.	.	.	16b-yJ	.	.	16ee-yJ	.	.
4F	.	.	.	.	.	.	16cL	.	.	16aL	.	.
.	.	.	.	.	.	.	16a	.	.	16cc	.	.
.	.	.	.	.	.	.	16c	.	.	16ff	.	.
.	.	.	.	.	.	.	16aJ	.	.	16ee-yJ	.	.
8BB-yL	.	.	.	.	.	.	8b-yL	.	.	16ddL	.	.
.	.	.	.	.	.	.	.	.	.	16ee-y	.	.
8C	.	.	.	.	.	.	8B-yJ	.	.	16ff	.	.
.	.	.	.	.	.	.	.	.	.	16ddJ	.	.
8D	.	.	.	.	.	.	8r	.	.	16b-yL	.	.
.	.	.	.	.	.	.	.	.	.	16cc	.	.
8BB-yJ	.	.	.	.	.	.	8dd	.	.	16dd	.	.
.	.	.	.	.	.	.	.	.	.	16b-yJ	.	.
=62	=62	=62	=62	=62	=62	=62	=62	=62	=62	=62	=62	=62
8CL	1r	1r	1r	.	1r	.	(>16eeL	.	1r	16gL	1r	.
.	.	.	.	.	.	.	16ff#)	.	.	16cc	.	.
8BB-y	.	.	.	.	.	.	(>16ee	.	.	16g	.	.
.	.	.	.	.	.	.	16ff#yJ)	.	.	16ccJ	.	.
8AA	.	.	.	.	.	.	8.ff#yLT	.	.	16aL	.	.
.	.	.	.	.	.	.	.	.	.	16cc	.	.
8DJ	.	.	.	.	.	.	.	.	.	16a	.	.
.	.	.	.	.	.	.	32ee	.	.	16ccJ	.	.
.	.	.	.	.	.	.	32ff#yJ	.	.	.	.	.
8BB-yL	.	.	.	.	.	.	8ggL	.	.	16b-yL	.	.
.	.	.	.	.	.	.	.	.	.	16dd	.	.
8AA	.	.	.	.	.	.	16g	.	.	16b-y	.	.
.	.	.	.	.	.	.	16aJ	.	.	16ddJ	.	.
8GG	.	.	.	.	.	.	16b-yL	.	.	16b-yL	.	.
.	.	.	.	.	.	.	16cc	.	.	16gg	.	.
8BB-yJ	.	.	.	.	.	.	16dd	.	.	16b-y	.	.
.	.	.	.	.	.	.	16b-yJ	.	.	16ggJ	.	.
=63	=63	=63	=63	=63	=63	=63	=63	=63	=63	=63	=63	=63
4C	1r	1r	1r	.	1r	.	16ee-L	.	2r	16aL	1r	.
.	.	.	.	.	.	.	16cc	.	.	16gg	.	.
.	.	.	.	.	.	.	16a	.	.	16a	.	.
.	.	.	.	.	.	.	16ccJ	.	.	16ggJ	.	.
4D	.	.	.	.	.	.	16f#L	.	.	16aL	.	.
.	.	.	.	.	.	.	16a	.	.	16ff#	.	.
.	.	.	.	.	.	.	16dd	.	.	16a	.	.
.	.	.	.	.	.	.	16ccJ	.	.	16ff#yJ	.	.
8GGL	.	.	.	.	.	.	16b-yL	.	4r	8ggL	.	.
.	.	.	.	.	.	.	16cc	.	.	.	.	.
8AA	.	.	.	.	.	.	16dd	.	.	8gJ	.	.
.	.	.	.	.	.	.	16b-yJ	.	.	.	.	.
8BB-y	.	.	.	.	.	.	16gL	.	8r	8r	.	.
.	.	.	.	.	.	.	16a	.	.	.	.	.
8GGJ	.	.	.	.	.	.	16b-y	.	8b-y	8bb-y	.	.
.	.	.	.	.	.	.	16gJ	.	.	.	.	.
=64	=64	=64	=64	=64	=64	=64	=64	=64	=64	=64	=64	=64
8AA-L	1r	1r	1r	.	1r	.	16e-L	.	16ccL	(>8bb-yL	1r	.
.	.	.	.	.	.	.	16a-	.	16dd	.	.	.
8GG	.	.	.	.	.	.	16e-y	.	16cc	8aa-J)	.	.
.	.	.	.	.	.	.	16a-yJ	.	16ddJ	.	.	.
8FF	.	.	.	.	.	.	16fL	.	8.ddLT	8r	.	.
.	.	.	.	.	.	.	16a-y	.	.	.	.	.
8BB-yJ	.	.	.	.	.	.	16f	.	.	8aa-y	.	.
.	.	.	.	.	.	.	16a-yJ	.	32cc	.	.	.
.	.	.	.	.	.	.	.	.	32ddJ	.	.	.
8GGL	.	.	.	.	.	.	16gL	.	8ee-L	(>8aa-yL	.	.
.	.	.	.	.	.	.	16b-y	.	.	.	.	.
8FF	.	.	.	.	.	.	16g	.	16e-	8ggJ)	.	.
.	.	.	.	.	.	.	16b-yJ	.	16fJ	.	.	.
8EE-	.	.	.	.	.	.	16gL	.	16gL	8r	.	.
.	.	.	.	.	.	.	16ee-	.	16a-	.	.	.
8GGJ	.	.	.	.	.	.	16g	.	16b-y	8ee-	.	.
.	.	.	.	.	.	.	16ee-yJ	.	16gJ	.	.	.
=65	=65	=65	=65	=65	=65	=65	=65	=65	=65	=65	=65	=65
8AA-	1r	1r	1r	.	1r	.	16fL	.	16ccL	(>8ee-L	2r	.
.	.	.	.	.	.	.	16ee-	.	16a-	.	.	.
8r	.	.	.	.	.	.	16f	.	16f	8ddJ)	.	.
.	.	.	.	.	.	.	16ee-yJ	.	16a-yJ	.	.	.
8BB-y	.	.	.	.	.	.	16fL	.	16dL	8r	.	.
.	.	.	.	.	.	.	16dd	.	16f	.	.	.
8r	.	.	.	.	.	.	16f	.	16b-y	8ff	.	.
.	.	.	.	.	.	.	16ddJ	.	16a-yJ	.	.	.
8EE-L	.	.	.	.	.	.	4e-	.	16gL	(>8ffL	4r	.
.	.	.	.	.	.	.	.	.	16a-y	.	.	.
8FF	.	.	.	.	.	.	.	.	16b-y	8ee-yJ)	.	.
.	.	.	.	.	.	.	.	.	16gJ	.	.	.
8GG	.	.	.	.	.	.	8r	.	16e-L	8r	8r	.
.	.	.	.	.	.	.	.	.	16f	.	.	.
8EE-yJ	.	.	.	.	.	.	8gg	.	16g	8eee-	8gg	.
.	.	.	.	.	.	.	.	.	16e-yJ	.	.	.
=66	=66	=66	=66	=66	=66	=66	=66	=66	=66	=66	=66	=66
8FFL	1r	1r	1r	.	1r	.	(>8ggL	.	16cL	(>8eee-L	16aaL	.
.	.	.	.	.	.	.	.	.	16f	.	16bbn	.
8EE-	.	.	.	.	.	.	8ffJ)	.	16c	8dddJ)	16aa	.
.	.	.	.	.	.	.	.	.	16fJ	.	16bbJ	.
8DD	.	.	.	.	.	.	8r	.	16dL	8r	8.bbLT	.
.	.	.	.	.	.	.	.	.	16f	.	.	.
8GGJ	.	.	.	.	.	.	8ff	.	16d	8ddd	.	.
.	.	.	.	.	.	.	.	.	16fJ	.	32aa	.
.	.	.	.	.	.	.	.	.	.	.	32bbJ	.
8EE-yL	.	.	.	.	.	.	(>8ffL	.	16e-L	(>8dddL	16cccL	.
.	.	.	.	.	.	.	.	.	16g	.	16bb	.
8DD	.	.	.	.	.	.	8ee-J)	.	16e-y	8cccJ)	16ccc	.
.	.	.	.	.	.	.	.	.	16gJ	.	16dddJ	.
8CC	.	.	.	.	.	.	8r	.	16e-yL	8r	16cccL	.
.	.	.	.	.	.	.	.	.	16cc	.	16ddd	.
8CJ	.	.	.	.	.	.	8cc	.	16e-y	8gg	16eee-	.
.	.	.	.	.	.	.	.	.	16ccJ	.	16cccJ	.
=67	=67	=67	=67	=67	=67	=67	=67	=67	=67	=67	=67	=67
8FL	2r	2r	2r	.	2r	.	(>8ccL	.	16dL	8aa-L	16dddL	.
.	.	.	.	.	.	.	.	.	16cc	.	16eee-	.
8D	.	.	.	.	.	.	8b-yJ)	.	16d	8ff	16ddd	.
.	.	.	.	.	.	.	.	.	16ccJ	.	16cccJ	.
8G	.	.	.	.	.	.	8r	.	16dL	8dd	16bbnL	.
.	.	.	.	.	.	.	.	.	16bn	.	16aa	.
8GGJ	.	.	.	.	.	.	8dd	.	16d	8bbnJ	16gg	.
.	.	.	.	.	.	.	.	.	16bJ	.	16ffJ	.
8CL	4r	4r	4r	.	4r	.	(>8ddL	.	8ccL	8ggL	16ee-L	.
.	.	.	.	.	.	.	.	.	.	.	16ff	.
8DJ	.	.	.	.	.	.	8ccJ)	.	8cJ	8cccJ	16gg	.
.	.	.	.	.	.	.	.	.	.	.	16ee-yJ	.
16E-L	8r	8r	8r	.	8r	.	8r	.	8r	8r	8cc	.
16F	.	.	.	.	.	.	.	.	.	.	.	.
16E-y	8CC	8cc	8cc	.	8cc	.	8g	.	8cc	16ggL	8cc	.
16DJ	.	.	.	.	.	.	.	.	.	16ffJ	.	.
=68	=68	=68	=68	=68	=68	=68	=68	=68	=68	=68	=68	=68
16CL	16CL	8gL	8gL	.	8gL	.	16ccL	.	8gL	16ee-L	8ee-L	.
16D	16D	.	.	.	.	.	16g	.	.	16dd	.	.
16E-	16E-	16e-	16e-	.	16e-	.	16g	.	16e-	16cc	8gg	.
16DJ	16DJ	16fJ	16fJ	.	16fJ	.	16bnJ	.	16fJ	16ddJ	.	.
16CL	16CL	8gL	8gL	.	8gL	.	16ccL	.	8gL	16ee-yL	8ee-y	.
16D	16D	.	.	.	.	.	16g	.	.	16ff	.	.
16E-y	16E-y	16e-y	16e-y	.	16e-y	.	16g	.	16e-y	16gg	8ccJ	.
16DJ	16DJ	16fJ	16fJ	.	16fJ	.	16bJ	.	16fJ	16ffJ	.	.
16CL	16CL	8gL	8gL	.	8gL	.	16ccL	.	8gL	16ee-yL	8ee-yL	.
16BBn	16BBn	.	.	.	.	.	16g	.	.	16dd	.	.
16C	16C	8cc	8cc	.	8cc	.	16g	.	8cc	16ee-y	8gg	.
16DJ	16DJ	.	.	.	.	.	16bJ	.	.	16ffJ	.	.
16E-yL	16E-yL	8g	8g	.	8g	.	16ccL	.	8g	16ggL	8ccc	.
16F	16F	.	.	.	.	.	16g	.	.	16aa-	.	.
16E-y	16E-y	8ccJ	8ccJ	.	8ccJ	.	16g	.	8ccJ	16gg	8ggJ	.
16DJ	16DJ	.	.	.	.	.	16bJ	.	.	16ffJ	.	.
=69	=69	=69	=69	=69	=69	=69	=69	=69	=69	=69	=69	=69
16CL	16CL	8gL	8gL	.	8gL	.	16ccL	.	8gL	16ee-L	8ee-L	.
16D	16D	.	.	.	.	.	16g	.	.	16dd	.	.
16E-	16E-	16e-	16e-	.	16e-	.	16g	.	16e-	16cc	8gg	.
16DJ	16DJ	16fJ	16fJ	.	16fJ	.	16bnJ	.	16fJ	16ddJ	.	.
16CL	16CL	8gL	8gL	.	8gL	.	16ccL	.	8gL	16ee-yL	8ee-y	.
16D	16D	.	.	.	.	.	16g	.	.	16ff	.	.
16E-y	16E-y	16e-y	16e-y	.	16e-y	.	16g	.	16e-y	16gg	8ccJ	.
16DJ	16DJ	16fJ	16fJ	.	16fJ	.	16bJ	.	16fJ	16ffJ	.	.
16CL	16CL	8gL	8gL	.	8gL	.	16ccL	.	8gL	16ee-yL	8ee-yL	.
16BBn	16BBn	.	.	.	.	.	16g	.	.	16dd	.	.
16C	16C	8ccJ	8ccJ	.	8cc	.	16a	.	8ccJ	16ee-y	8ggJ	.
16DJ	16DJ	.	.	.	.	.	16bJ	.	.	16ffJ	.	.
8E-yL	8E-yL	8g	8g	.	8gJ	.	16ccL	.	16gL	16ggL	4ccc	.
.	.	.	.	.	.	.	16dd	.	16a	16ff	.	.
8CJ	8CJ	8r	8r	.	8cc	.	16ee-	.	16bn	16gg	.	.
.	.	.	.	.	.	.	16ffJ	.	16ccJ	16aanJ	.	.
=70	=70	=70	=70	=70	=70	=70	=70	=70	=70	=70	=70	=70
8GL	8GL	8r	8r	.	16ddL	.	16ggL	.	16ddL	16bbnL	8r	.
.	.	.	.	.	16cc	.	16ff	.	16cc	16aa	.	.
8GGJ	8GGJ	8g	8g	.	16dd	.	16gg	.	16dd	16bb	16ggL	.
.	.	.	.	.	16ee-J	.	16aaJ	.	16ee-J	16cccJ	16ggJ	.
8r	8r	8gL	8gL	.	16ffL	.	16bbnL	.	16ffL	16dddL	4gg	.
.	.	.	.	.	16ee-y	.	16aa	.	16ee-y	16ccc	.	.
8G	8G	8GJ	8GJ	.	16ff	.	16bb	.	16ff	16ddd	.	.
.	.	.	.	.	16ee-yJ	.	16cccJ	.	16ee-yJ	16eee-J	.	.
8GL	8GL	8r	8r	.	16ddL	.	8dddL	.	16ddL	16fffL	8r	.
.	.	.	.	.	16cc	.	.	.	16cc	16eee-y	.	.
8GGJ	8GGJ	8g	8g	.	16bn	.	8ggJ	.	16bn	16ddd	16ggL	.
.	.	.	.	.	16aJ	.	.	.	16aJ	16cccJ	16ggJ	.
8r	8r	8gL	8gL	.	16gL	.	8r	.	16gL	16bbL	4gg	.
.	.	.	.	.	16cc	.	.	.	16cc	16aa	.	.
8G	8G	8GJ	8GJ	.	16b	.	8ddd	.	16b	16gg	.	.
.	.	.	.	.	16ccJ	.	.	.	16ccJ	16aaJ	.	.
=71	=71	=71	=71	=71	=71	=71	=71	=71	=71	=71	=71	=71
8GL	8GL	8r	8r	.	16ddL	.	16ggL	.	16ddL	16bbnL	8r	.
.	.	.	.	.	16cc	.	16ff	.	16cc	16aa	.	.
8GGJ	8GGJ	8g	8g	.	16dd	.	16gg	.	16dd	16bb	16ggL	.
.	.	.	.	.	16ee-J	.	16aaJ	.	16ee-J	16cccJ	16ggJ	.
8r	8r	8gL	8gL	.	16ffL	.	16bbnL	.	16ffL	16dddL	4gg	.
.	.	.	.	.	16ee-y	.	16aa	.	16ee-y	16ccc	.	.
8G	8G	8GJ	8GJ	.	16ff	.	16bb	.	16ff	16ddd	.	.
.	.	.	.	.	16ee-yJ	.	16cccJ	.	16ee-yJ	16eee-J	.	.
8GL	8GL	8r	8r	.	16ddL	.	8dddL	.	16ddL	16fffL	8r	.
.	.	.	.	.	16cc	.	.	.	16cc	16eee-y	.	.
8GG	8GG	8g	8g	.	16bn	.	8ggJ	.	16bn	16ddd	16ggL	.
.	.	.	.	.	16aJ	.	.	.	16aJ	16cccJ	16ggJ	.
8G	8G	8gL	8gL	.	16gL	.	8r	.	16gL	16bbL	4gg	.
.	.	.	.	.	16f	.	.	.	16f	16aa	.	.
8FJ	8FJ	8GJ	8GJ	.	16e-	.	16ggL	.	16e-	16bb	.	.
.	.	.	.	.	16dJ	.	16aa-J	.	16dJ	16ggJ	.	.
=72	=72	=72	=72	=72	=72	=72	=72	=72	=72	=72	=72	=72
(>8EL	8EL	8GL	8cL	.	8c	.	16bb-yL	.	8cL	8cccL	8r	p
.	.	.	.	.	.	.	16aa-	.	.	.	.	.
8E	8r	8r	8r	.	4cc	.	16gg	.	16e	8cc	(>8bb-yL	.
.	.	.	.	.	.	.	16ffJ	.	16dJ	.	.	.
8E	8EJ	8cJ	8eJ	.	.	.	16ggL	.	8cL	8ee	8bb-y	.
.	.	.	.	.	.	.	16ff	.	.	.	.	.
8EJ)	8r	8r	8r	.	4g	.	16ee	.	8gJ	8ggJ	8bb-yJ)	.
.	.	.	.	.	.	.	16ddJ	.	.	.	.	.
(>8EL	8EL	8eL	8gL	.	.	.	16ccL	.	8eL	8cccL	(>8bb-yL	.
.	.	.	.	.	.	.	16g	.	.	.	.	.
8E	8r	8r	8r	.	4e	.	16a	.	8ccJ	8gg	8bb-y	.
.	.	.	.	.	.	.	16bnJ	.	.	.	.	.
8E	8EJ	8gJ	8b-yJ	.	.	.	16ccL	.	16gL	8ee	8bb-y	.
.	.	.	.	.	.	.	16dd	.	16f	.	.	.
8EJ)	8r	8r	8r	.	[8c	.	16ee	.	16e	8ccJ	8bb-yJ)	.
.	.	.	.	.	.	.	16ccJ	.	16dJ	.	.	.
=73	=73	=73	=73	=73	=73	=73	=73	=73	=73	=73	=73	=73
(>8E-L	8E-L	8AL	8cL	p	8c]	p	8ffL	.	16cL	8ffL	8aa	f
.	.	.	.	.	.	.	.	.	16a	.	.	.
8E-y	8r	8r	8r	.	4cc	.	(>8f 8cc	.	16cc	16aa	8fL	.
.	.	.	.	.	.	.	.	.	16b-yJ	16ggJ	.	.
8E-y	8E-yJ	8cJ	8fJ	.	.	.	8f 8cc	.	16aL	8ffL	8a	.
.	.	.	.	.	.	.	.	.	16b-y	.	.	.
8E-yJ)	8r	8r	8r	.	4a	.	8fJ) 8cc	.	16a	16ccc	8ccJ	.
.	.	.	.	.	.	.	.	.	16gJ	16bb-yJ	.	.
(>8E-yL	8E-yL	8fL	8aL	.	.	.	(<8fL 8cc	.	16fL	8aaL	8ffL	.
.	.	.	.	.	.	.	.	.	16c	.	.	.
8E-y	8r	8r	8r	.	4f	.	8f 8cc	.	16d	8fffJ	8cc	.
.	.	.	.	.	.	.	.	.	16eJ	.	.	.
8E-y	8E-yJ	8aJ	8ccJ	.	.	.	8f 8cc	.	16fL	16cccL	8a	.
.	.	.	.	.	.	.	.	.	16g	16bb-y	.	.
8E-yJ)	8r	8r	8r	.	[8c	.	8fJ) 8cc	.	16a	16aa	8fJ	.
.	.	.	.	.	.	.	.	.	16b-yJ	16ggJ	.	.
=74	=74	=74	=74	=74	=74	=74	=74	=74	=74	=74	=74	=74
(>8DL	8DL	8AL	8cL	f	8c]	.	8aL	p	16ccL	(>8ff#L	(>8aaL	p
.	.	.	.	.	.	.	.	.	16dd	.	.	.
8D	8r	8r	8r	.	4cc	.	16cc	.	16ee-	8ff#y	8aa	.
.	.	.	.	.	.	.	16b-yJ	.	16ddJ	.	.	.
8D	8DJ	8dJ	8f#J	.	.	.	8aL	.	16ccL	8ff#y	8aa	.
.	.	.	.	.	.	.	.	.	16dd	.	.	.
8DJ)	8r	8r	8r	.	4a	.	16ee-	.	16cc	8ff#yJ)	8aaJ)	.
.	.	.	.	.	.	.	16ddJ	.	16b-yJ	.	.	.
(>8DL	8DL	8f#L	8aL	.	.	.	8ccL	.	16aL	(>8ff#yL	(>8aaL	.
.	.	.	.	.	.	.	.	.	16b-y	.	.	.
8D	8r	8r	8r	.	4f#	.	8aaJ	.	16a	8ff#y	8aa	.
.	.	.	.	.	.	.	.	.	16gJ	.	.	.
8D	8DJ	8aJ	8ccJ	.	.	.	16ddL	.	16g-L	8ff#yJ)	8aa	.
.	.	.	.	.	.	.	16cc	.	16a	.	.	.
8DJ)	8r	8r	8r	.	8dd	.	16b-y	.	16b-y	8ddd	8aaJ)	.
.	.	.	.	.	.	.	16aJ	.	16ccJ	.	.	.
=75	=75	=75	=75	=75	=75	=75	=75	=75	=75	=75	=75	=75
16GL	16GL	8gL	8b-yL	.	8ddL	f	16b-yL	.	8ddL	[1ddd	8bb-yL	f
16A	16A	.	.	.	.	.	16cc	.	.	.	.	.
16B-y	16B-y	16g	16g	.	16b-y	.	16dd	.	16b-y	.	16gg	.
16AJ	16AJ	16f#J	16f#J	.	16ccJ	.	16ccJ	.	16ccJ	.	16aaJ	.
16GL	16GL	8gL	8gL	.	8ddL	.	16b-yL	.	8ddL	.	8bb-yL	.
16A	16A	.	.	.	.	.	16cc	.	.	.	.	.
16B-y	16B-y	16g	16g	.	16b-y	.	16dd	.	16b-y	.	16gg	.
16AJ	16AJ	16f#yJ	16f#yJ	.	16ccJ	.	16ccJ	.	16ccJ	.	16aaJ	.
16GL	16GL	8gL	8gL	.	8ddL	.	16b-yL	.	8ddL	.	8bb-yL	.
16F#	16F#	.	.	.	.	.	16cc	.	.	.	.	.
16G	16G	16g	16g	.	8gg	.	16b-y	.	8gg	.	8ddd	.
16AJ	16AJ	16f#yJ	16f#yJ	.	.	.	16aJ	.	.	.	.	.
16B-yL	16B-yL	8gL	8gL	.	8dd	.	16gL	.	8dd	.	8bb-y	.
16c	16c	.	.	.	.	.	16f#	.	.	.	.	.
16B-y	16B-y	16g	16g	.	8ggJ	.	16g	.	8ggJ	.	8dddJ	.
16AJ	16AJ	16f#yJ	16f#yJ	.	.	.	16aJ	.	.	.	.	.
=76	=76	=76	=76	=76	=76	=76	=76	=76	=76	=76	=76	=76
16GL	16GL	8gL	8gL	.	8ddL	.	16b-yL	.	8ddL	2ddd_	8bb-yL	.
16A	16A	.	.	.	.	.	16cc	.	.	.	.	.
16B-y	16B-y	16g	16g	.	16b-y	.	16dd	.	16b-y	.	16gg	.
16AJ	16AJ	16f#J	16f#J	.	16ccJ	.	16ccJ	.	16ccJ	.	16aaJ	.
16GL	16GL	8gL	8gL	.	8ddL	.	16b-yL	.	8ddL	.	8bb-yL	.
16A	16A	.	.	.	.	.	16cc	.	.	.	.	.
16B-y	16B-y	16g	16g	.	16b-y	.	16dd	.	16b-y	.	16gg	.
16AJ	16AJ	16f#yJ	16f#yJ	.	16ccJ	.	16ccJ	.	16ccJ	.	16aaJ	.
16GL	16GL	8gL	8gL	.	8ddL	.	16b-yL	.	8ddL	8dddL]	8bb-yL	.
16F#	16F#	.	.	.	.	.	16cc	.	.	.	.	.
16G	16G	16g	16g	.	8gg	.	16b-y	.	8ggJ	8ddJ	8ddd	.
16AJ	16AJ	16f#yJ	16f#yJ	.	.	.	16aJ	.	.	.	.	.
16B-yL	16B-yL	8gL	4g	.	8dd	.	16gL	.	4dd	8r	8ggg	.
16A	16A	.	.	.	.	.	16a	.	.	.	.	.
16B-y	16B-y	8GJ	.	.	8bb-yJ	.	16g	.	.	16ggL	8dddJ	.
16GJ	16GJ	.	.	.	.	.	16fJ	.	.	16bb-yJ	.	.
=77	=77	=77	=77	=77	=77	=77	=77	=77	=77	=77	=77	=77
16CL	8CL	16cL	1ee-	.	2bb-y	.	16e-L	.	8r	16ccL	4eee-	.
16BB-y	.	16B-y	.	.	.	.	16d	.	.	16bb-y	.	.
16C	8c	16c	.	.	.	.	16e-y	.	8ggL	16cc	.	.
16DJ	.	16dJ	.	.	.	.	16fJ	.	.	16bb-yJ	.	.
16E-L	8r	16e-L	.	.	.	.	16gL	.	8ccc	16ccL	4r	.
16D	.	16d	.	.	.	.	16f	.	.	16bb-y	.	.
16E-y	8cJ	16e-y	.	.	.	.	16g	.	8ggJ	16cc	.	.
16CJ	.	16cJ	.	.	.	.	16enJ	.	.	16bb-yJ	.	.
16FL	16FL	8fL	.	.	[2aa	.	16aL	.	[2aa	16ccL	8r	.
16E-y	16E-	.	.	.	.	.	16g	.	.	16aa	.	.
16F	16F	8F	.	.	.	.	16a	.	.	16cc	8cccL	.
16GJ	16GJ	.	.	.	.	.	16b-yJ	.	.	16aaJ	.	.
16AL	16AL	8r	.	.	.	.	16ccL	.	.	16ccL	8fff	.
16G	16G	.	.	.	.	.	16b-y	.	.	16aa	.	.
16A	16A	8FJ	.	.	.	.	16cc	.	.	16cc	8cccJ	.
16FJ	16FJ	.	.	.	.	.	16aJ	.	.	16aaJ	.	.
=78	=78	=78	=78	=78	=78	=78	=78	=78	=78	=78	=78	=78
16BB-yL	8BB-yL	16B-yL	1dd	.	2aa	.	16ddL	.	8aaL]]	16b-yL	4ddd	.
16AA	.	16A	.	.	.	.	16cc	.	.	16aa	.	.
16BB-y	8B-y	16B-y	.	.	.	.	16dd	.	8ff	16b-y	.	.
16CJ	.	16cJ	.	.	.	.	16ee-J	.	.	16aaJ	.	.
16DL	8r	16dL	.	.	.	.	16ffL	.	8bb-y	16b-yL	4r	.
16C	.	16c	.	.	.	.	16ee-y	.	.	16aa	.	.
16D	8B-yJ	16d	.	.	.	.	16ff	.	8ffJ	16b-y	.	.
16BB-yJ	.	16B-yJ	.	.	.	.	16ddJ	.	.	16aaJ	.	.
16E-L	16E-L	8e-L	.	.	[2gg	.	16ggL	.	[2gg	16b-yL	8r	.
16D	16D	.	.	.	.	.	16ff#	.	.	16gg	.	.
16E-y	16E-y	8E-	.	.	.	.	16gg	.	.	16b-y	8bb-yL	.
16FJ	16FJ	.	.	.	.	.	16aaJ	.	.	16ggJ	.	.
16GL	16GL	8r	.	.	.	.	16bb-yL	.	.	16b-yL	8eee-	.
16F	16F	.	.	.	.	.	16aa	.	.	16gg	.	.
16G	16G	8E-yJ	.	.	.	.	16bb-y	.	.	16b-y	8bb-yJ	.
16E-yJ	16E-yJ	.	.	.	.	.	16ggJ	.	.	16ggJ	.	.
=79	=79	=79	=79	=79	=79	=79	=79	=79	=79	=79	=79	=79
16AAL	8AAL	16AL	2.cc	.	2gg	.	8.cccL	.	8ggL]]	16aL	4ccc	.
16GG	.	16G	.	.	.	.	.	.	.	16gg	.	.
16AA	8AJ	16A	.	.	.	.	.	.	8een	16a	.	.
16BB-yJ	.	16B-yJ	.	.	.	.	16bb-yJ	.	.	16ggJ	.	.
16CL	8r	16cL	.	.	.	.	16aaL	.	8aa	16aL	4r	.
16BB-y	.	16B-y	.	.	.	.	16gg	.	.	16gg	.	.
16C	8A	16c	.	.	.	.	16gg-	.	8eeJ	16a	.	.
16AAJ	.	16AJ	.	.	.	.	16eeJ	.	.	16ggJ	.	.
16DL	16DL	8dL	.	.	2ff#	.	8.ddL	.	4.ff#T	16aL	8r	.
16C	16C	.	.	.	.	.	.	.	.	16ff#	.	.
16D	16D	8DJ	.	.	.	.	.	.	.	16a	8aaL	.
16E-J	16E-J	.	.	.	.	.	16ccJ	.	.	16ff#yJ	.	.
16DL	16DL	8r	4a	.	.	.	16b-yL	.	.	16aL	8ddd	.
16C	16C	.	.	.	.	.	16a	.	.	16ff#y	.	.
16BB-y	16BB-y	16ddL	.	.	.	.	16g	.	16ggL	16a	8cccJ	.
16AAJ	16AAJ	16ccJ	.	.	.	.	16g-J	.	16aaJ	16ff#yJ	.	.
=80	=80	=80	=80	=80	=80	=80	=80	=80	=80	=80	=80	=80
8GGL	8GGL	8ddL	4b-y	.	8ggL	.	8gL	.	8bb-yL	16gL	8bb-yL	.
.	.	.	.	.	.	.	.	.	.	16bb-y	.	.
8D	8D	16dd	.	.	16b-y	.	16b-y	.	16gg	16ddd	8gg	.
.	.	16ccJ	.	.	16aJ	.	16aJ	.	16ff#J	16cccJ	.	.
8D	8D	8b-yL	8r	.	8gL	.	8gL	.	8ggL	16bb-yL	8bb-y	.
.	.	.	.	.	.	.	.	.	.	16ccc	.	.
8BB-yJ	8BB-yJ	16b-y	16ggL	.	16dd	.	16dd	.	8ddJ	16bb-y	8dddJ	.
.	.	16aJ	16ff#J	.	16ccJ	.	16ccJ	.	.	16aaJ	.	.
8BB-yL	8BB-yL	4g	8ggL	.	8b-yL	.	8b-yL	.	8ddL	16ggL	8gggL	.
.	.	.	.	.	.	.	.	.	.	16aa	.	.
8GG	8GG	.	16gg	.	8ggJ	.	8ggJ	.	16bb-y	16bb-y	8ddd	.
.	.	.	16ff#yJ	.	.	.	.	.	16aaJ	16cccJ	.	.
8GG	8GG	8r	8ggL	.	16ddL	.	16ddL	.	8bb-yL	16bb-yL	8bb-y	.
.	.	.	.	.	16cc	.	16cc	.	.	16aa	.	.
8GJ	8GJ	16ddL	16gg	.	16b-y	.	16b-y	.	8ddJ	16gg	8dddJ	.
.	.	16ccJ	16ff#yJ	.	16aJ	.	16aJ	.	.	16ff#J	.	.
=81	=81	=81	=81	=81	=81	=81	=81	=81	=81	=81	=81	=81
8GL	8GL	8ddL	4gg	.	8gL	.	8gL	.	8ddL	16ggL	8bb-yL	.
.	.	.	.	.	.	.	.	.	.	16bb-y	.	.
8D	8D	16dd	.	.	16b-y	.	16b-y	.	16gg	16ddd	8gg	.
.	.	16ccJ	.	.	16aJ	.	16aJ	.	16ff#J	16cccJ	.	.
8D	8D	8b-yL	8r	.	8gL	.	8gL	.	8ggL	16bb-yL	8bb-y	.
.	.	.	.	.	.	.	.	.	.	16ccc	.	.
8BB-yJ	8BB-yJ	16b-y	16ggL	.	16dd	.	16dd	.	8ddJ	16bb-y	8dddJ	.
.	.	16aJ	16ff#J	.	16ccJ	.	16ccJ	.	.	16aaJ	.	.
8BB-yL	8BB-yL	4g	8ggL	.	8b-yL	.	8b-yL	.	8ddL	16ggL	8gggL	.
.	.	.	.	.	.	.	.	.	.	16aa	.	.
8GG	8GG	.	16gg	.	8ggJ	.	8ggJ	.	16bb-y	16bb-y	8ddd	.
.	.	.	16ff#yJ	.	.	.	.	.	16aaJ	16cccJ	.	.
8GG	8GG	8r	8ggL	.	16ddL	.	16ddL	.	4bb-y	16dddL	8bb-y	.
.	.	.	.	.	16ee	.	16ee	.	.	16gg	.	.
8GJ	8GJ	8b-y	8ddJ	.	16ff#	.	16ff#	.	.	16ff#	8ggJ	.
.	.	.	.	.	16ggJ	.	16ggJ	.	.	16ggJ	.	.
=82	=82	=82	=82	=82	=82	=82	=82	=82	=82	=82	=82	=82
8DL	8DL	8a	8gg-	.	16aaL	.	16aaL	.	8r	16aaL	1r	.
.	.	.	.	.	16bb-y	.	16bb-y	.	.	16bb-y	.	.
8FF#	8FF#	4d	4aa	.	16ccc	.	16ccc	.	16ddL	16ccc	.	.
.	.	.	.	.	16aaJ	.	16aaJ	.	16ee-J	16aaJ	.	.
8GG	8GG	.	.	.	16bb-yL	.	16bb-yL	.	8ddL	16bb-yL	.	.
.	.	.	.	.	16gg	.	16gg	.	.	16gg	.	.
8BB-yJ	8BB-yJ	8b-y	8ggn	.	16dd	.	16dd	.	8ggJ	16dd	.	.
.	.	.	.	.	16ggJ	.	16ggJ	.	.	16ggJ	.	.
8DL	8DL	8a	8gg-L	.	16aaL	.	16aaL	.	8gg-L	16aaL	.	.
.	.	.	.	.	16bb-y	.	16bb-y	.	.	16bb-y	.	.
8FF#y	8FF#y	4d	8aa	.	16ccc	.	16ccc	.	16dd	16ccc	.	.
.	.	.	.	.	16aaJ	.	16aaJ	.	16ee-yJ	16aaJ	.	.
8GG	8GG	.	8ggn	.	16bb-yL	.	16bb-yL	.	8ddL	16bb-yL	.	.
.	.	.	.	.	16gg	.	16gg	.	.	16gg	.	.
8G-J	8G-J	8d	8aaJ	.	8ddd`>J	.	8ddd`>J	.	8aa`>J	8ddd`>J	.	.
=83	=83	=83	=83	=83	=83	=83	=83	=83	=83	=83	=83	=83
8GL	8GL	8gL	8ddL	.	(>16cccL	.	(>16cccL	.	8ddL	(>16cccL	2r	.
.	.	.	.	.	16bb-y)	.	16bb-y)	.	.	16bb-y)	.	.
8C	8C	8e-	8cc	.	(>16aa	.	(>16aa	.	16cc	(>16aa	.	.
.	.	.	.	.	16ggJ)	.	16ggJ)	.	16b-yJ	16ggJ)	.	.
8D	8D	8d	8b-y	.	8ddL	.	8ddL	.	8aL	8ddL	.	.
8DDJ	8DDJ	8dJ	8aJ	.	8ff#J	.	8ff#J	.	8ddJ	8ff#J	.	.
4GG	4GG	4d	4b-y	.	8ggL	.	8ggL	.	16b-yL	4gg	4r	.
.	.	.	.	.	.	.	.	.	16a	.	.	.
.	.	.	.	.	16ffn	.	16ffn	.	16g	.	.	.
.	.	.	.	.	16ee-J	.	16ee-J	.	16aJ	.	.	.
4r	4r	4r	4r	.	16ddL	.	16ddL	.	16b-yL	8r	8r	.
.	.	.	.	.	16cc	.	16cc	.	16cc	.	.	.
.	.	.	.	.	16b-y	.	16b-y	.	8ddJ	8dd	16ggL	.
.	.	.	.	.	16aJ	.	16aJ	.	.	.	16aaJ	.
=84	=84	=84	=84	=84	=84	=84	=84	=84	=84	=84	=84	=84
1r	1r	8r	8r	.	8gL	.	8gL	.	8ddL	16ggL	16bb-yL	.
.	.	.	.	.	.	.	.	.	.	16aa	16aa	.
.	.	8dL	8dL	.	8d	.	8d	.	16b-y	16bb-y	16gg	.
.	.	.	.	.	.	.	.	.	16ccJ	16aaJ	16aaJ	.
.	.	8B-y	8B-y	.	8B-y	.	8B-y	.	8ddL	16ggL	8bb-yL	.
.	.	.	.	.	.	.	.	.	.	16aa	.	.
.	.	8dJ	8dJ	.	8dJ	.	8dJ	.	16b-y	16bb-y	16gg	.
.	.	.	.	.	.	.	.	.	16ccJ	16aaJ	16aaJ	.
.	.	8GL	8GL	.	8GL	.	8GL	.	8ddL	16ggL	16bb-yL	.
.	.	.	.	.	.	.	.	.	.	16ff#	16ccc	.
.	.	8d	8d	.	8d	.	8d	.	8gg	16gg	16bb-y	.
.	.	.	.	.	.	.	.	.	.	16aaJ	16aaJ	.
.	.	8B-y	8B-y	.	8B-y	.	8B-y	.	8dd	16bb-yL	16ggL	.
.	.	.	.	.	.	.	.	.	.	16ccc	16aa	.
.	.	8dJ	8dJ	.	8dJ	.	8dJ	.	8ggJ	16bb-y	16gg	.
.	.	.	.	.	.	.	.	.	.	16aaJ	16aaJ	.
=85	=85	=85	=85	=85	=85	=85	=85	=85	=85	=85	=85	=85
2r	2r	8gL	8gL	.	8gL	.	8gL	.	8ddL	16ggL	16bb-yL	.
.	.	.	.	.	.	.	.	.	.	16aa	16aa	.
.	.	8d	8d	.	8d	.	8d	.	16b-y	16bb-y	16gg	.
.	.	.	.	.	.	.	.	.	16ccJ	16aaJ	16aaJ	.
.	.	8B-y	8B-y	.	8B-y	.	8B-y	.	8ddL	16ggL	8bb-yL	.
.	.	.	.	.	.	.	.	.	.	16aa	.	.
.	.	8dJ	8dJ	.	8dJ	.	8dJ	.	16b-y	16bb-y	16gg	.
.	.	.	.	.	.	.	.	.	16ccJ	16aaJ	16aaJ	.
8r	8r	4G	4G	.	4G	.	4G	.	8ddL	16ggL	16bb-yL	.
.	.	.	.	.	.	.	.	.	.	16aa	16ccc	.
16GL	16GL	.	.	.	.	.	.	.	8gg	16gg	16bb-y	.
16AJ	16AJ	.	.	.	.	.	.	.	.	16ffJ	16aaJ	.
16B-yL	16B-yL	4r	4r	.	4r	.	8r	.	8g	16eenL	4gg	.
16A	16A	.	.	.	.	.	.	.	.	16ff	.	.
16B-y	16B-y	.	.	.	.	.	8ee	.	8gJ	16ee	.	.
16GJ	16GJ	.	.	.	.	.	.	.	.	16ddJ	.	.
=86	=86	=86	=86	=86	=86	=86	=86	=86	=86	=86	=86	=86
8AL	8AL	[1e	[1cc#	.	[1gg	.	16eeL	.	16gL	16cc#L	8r	.
.	.	.	.	.	.	.	16dd	.	16f	16bn	.	.
8E	8E	.	.	.	.	.	16cc#	.	16e	16a	(<8aL	.
.	.	.	.	.	.	.	16ddJ	.	16fJ	16bJ	.	.
8C#	8C#	.	.	.	.	.	16eeL	.	16gL	16cc#yL	8a	.
.	.	.	.	.	.	.	16dd	.	16f	16b	.	.
8EJ	8EJ	.	.	.	.	.	16cc#y	.	16e	16a	8aJ)	.
.	.	.	.	.	.	.	16ddJ	.	16fJ	16bJ	.	.
8AAL	8AAL	.	.	.	.	.	8eeL	.	8gL	16cc#yL	(<8aL	.
.	.	.	.	.	.	.	.	.	.	16b	.	.
8E	8E	.	.	.	.	.	8aa	.	8cc#	16cc#y	8a	.
.	.	.	.	.	.	.	.	.	.	16ddJ	.	.
8C#y	8C#y	.	.	.	.	.	8ee	.	8g	16eeL	8a	.
.	.	.	.	.	.	.	.	.	.	16dd	.	.
8EJ	8EJ	.	.	.	.	.	8aaJ	.	8cc#yJ	16ee	8aJ)	.
.	.	.	.	.	.	.	.	.	.	16ffJ	.	.
=87	=87	=87	=87	=87	=87	=87	=87	=87	=87	=87	=87	=87
8AL	8AL	1e]	1cc#y]	.	1gg]	.	16eeL	.	8cc#L	16ggL	(<8aL	.
.	.	.	.	.	.	.	16dd	.	.	16ff	.	.
8E	8E	.	.	.	.	.	16cc#	.	8a	16ee	8a	.
.	.	.	.	.	.	.	16ddJ	.	.	16ffJ	.	.
8C#	8C#	.	.	.	.	.	16eeL	.	8e	16ggL	8a	.
.	.	.	.	.	.	.	16dd	.	.	16ff	.	.
8EJ	8EJ	.	.	.	.	.	16cc#y	.	8aJ	16ee	8aJ)	.
.	.	.	.	.	.	.	16ddJ	.	.	16ffJ	.	.
4AA	4AA	.	.	.	.	.	8eeL	.	8cc#yL	16ggL	4a	.
.	.	.	.	.	.	.	.	.	.	16aa	.	.
.	.	.	.	.	.	.	8aa	.	8ee	16gg	.	.
.	.	.	.	.	.	.	.	.	.	16ffJ	.	.
8r	8r	.	.	.	.	.	8ee	.	8a	16eeL	4r	.
.	.	.	.	.	.	.	.	.	.	16gg	.	.
8A	8A	.	.	.	.	.	8aaJ	.	8cc#yJ	16ff	.	.
.	.	.	.	.	.	.	.	.	.	16eeJ	.	.
=88	=88	=88	=88	=88	=88	=88	=88	=88	=88	=88	=88	=88
8AL	8AL	[1a	[1dd	.	[1ff	.	16ffL	.	16ddL	16ffL	4r	.
.	.	.	.	.	.	.	16ee	.	16ee	16gg	.	.
16F	16F	.	.	.	.	.	16dd	.	16ff	16aa	.	.
16GJ	16GJ	.	.	.	.	.	16eeJ	.	16eeJ	16ggJ	.	.
8AL	8AL	.	.	.	.	.	16ffL	.	16ddL	16ffL	8r	.
.	.	.	.	.	.	.	16ee	.	16ee	16gg	.	.
16F	16F	.	.	.	.	.	16dd	.	16ff	16aa	8aa	.
16GJ	16GJ	.	.	.	.	.	16eeJ	.	16eeJ	16ggJ	.	.
8AL	8AL	.	.	.	.	.	16ffL	.	16ddL	16ffL	8aaL	.
.	.	.	.	.	.	.	16gg	.	16ee	16ee	.	.
8d	8d	.	.	.	.	.	16aa	.	16ff	16dd	16ff	.
.	.	.	.	.	.	.	16ggJ	.	16eeJ	16eeJ	16ggJ	.
8A	8A	.	.	.	.	.	16ffL	.	16ddL	16ffL	8aaL	.
.	.	.	.	.	.	.	16gg	.	16ee	16ee	.	.
8dJ	8dJ	.	.	.	.	.	16aa	.	16ff	16dd	16ff	.
.	.	.	.	.	.	.	16ggJ	.	16eeJ	16eeJ	16ggJ	.
=89	=89	=89	=89	=89	=89	=89	=89	=89	=89	=89	=89	=89
8AL	8AL	1a]	1dd_	.	1ff_	.	16ffL	.	16ddL	16ffL	8aaL	.
.	.	.	.	.	.	.	16ee	.	16ee	16gg	.	.
16F	16F	.	.	.	.	.	16dd	.	16ff	16aa	8ddd	.
16GJ	16GJ	.	.	.	.	.	16eeJ	.	16eeJ	16ggJ	.	.
8AL	8AL	.	.	.	.	.	16ffL	.	16ddL	16ffL	8aa	.
.	.	.	.	.	.	.	16ee	.	16ee	16gg	.	.
16F	16F	.	.	.	.	.	16dd	.	16ff	16aa	8dddJ	.
16GJ	16GJ	.	.	.	.	.	16eeJ	.	16eeJ	16ggJ	.	.
8AL	8AL	.	.	.	.	.	16ffL	.	16ddL	16ffL	8aaL	.
.	.	.	.	.	.	.	16gg	.	16ee	16ee	.	.
8d	8d	.	.	.	.	.	16aa	.	16ff	16dd	16ff	.
.	.	.	.	.	.	.	16ggJ	.	16ee	16ee	16ggJ	.
8D	8D	.	.	.	.	.	16ffL	.	8ddJ	8ffJ	8aaL	.
.	.	.	.	.	.	.	16ee	.	.	.	.	.
8FJ	8FJ	.	.	.	.	.	16dd	.	8r	8aa	8dddJ	.
.	.	.	.	.	.	.	16ccJ	.	.	.	.	.
=90	=90	=90	=90	=90	=90	=90	=90	=90	=90	=90	=90	=90
8GL	8GL	1b-y	2dd]	.	2ff]	.	16b-yL	.	4r	16dddL	8bb-yL	.
.	.	.	.	.	.	.	16a	.	.	16ccc	.	.
8B-y	8B-y	.	.	.	.	.	16g	.	.	16bb-y	8ddd	.
.	.	.	.	.	.	.	16aJ	.	.	16cccJ	.	.
8G	8G	.	.	.	.	.	16b-yL	.	8r	16dddL	8bb-y	.
.	.	.	.	.	.	.	16a	.	.	16ccc	.	.
8B-yJ	8B-yJ	.	.	.	.	.	16g	.	8dd	16bb-y	8dddJ	.
.	.	.	.	.	.	.	16aJ	.	.	16aaJ	.	.
8EL	8CL	.	[2cc	.	[2ee	.	16b-yL	.	16ggL	8gg	8cccL	.
.	.	.	.	.	.	.	16gg	.	16ff	.	.	.
8c	8E	.	.	.	.	.	16b-y	.	16ee	8r	8gg	.
.	.	.	.	.	.	.	16ggJ	.	16ffJ	.	.	.
8C	8C	.	.	.	.	.	16b-yL	.	16ggL	8r	8ccc	.
.	.	.	.	.	.	.	16gg	.	16ff	.	.	.
8EJ	8EJ	.	.	.	.	.	16b-y	.	16ee	8gg	8ggJ	.
.	.	.	.	.	.	.	16ggJ	.	16ddJ	.	.	.
=91	=91	=91	=91	=91	=91	=91	=91	=91	=91	=91	=91	=91
8FL	8FL	1a	2cc]	.	2ee]	.	16aL	.	8cc	16cccL	8aaL	.
.	.	.	.	.	.	.	16g	.	.	16bb-y	.	.
8A	8A	.	.	.	.	.	16f	.	8r	16aa	8ccc	.
.	.	.	.	.	.	.	16gJ	.	.	16bb-yJ	.	.
8F	8F	.	.	.	.	.	16aL	.	8r	16cccL	8aa	.
.	.	.	.	.	.	.	16g	.	.	16bb-y	.	.
8AJ	8AJ	.	.	.	.	.	16f	.	8cc	16aa	8cccJ	.
.	.	.	.	.	.	.	16gJ	.	.	16ggJ	.	.
8DL	8BBnL	.	[2bn	.	[2dd	.	16aL	.	16ffL	8ff	16bbnL	.
.	.	.	.	.	.	.	16gg	.	16ee	.	16ccc	.
8Bn	8D	.	.	.	.	.	16a	.	16dd	8r	16bb	.
.	.	.	.	.	.	.	16ggJ	.	16eeJ	.	16cccJ	.
8BBn	8BB	.	.	.	.	.	16aL	.	16ffL	8r	16dddL	.
.	.	.	.	.	.	.	16ff	.	16ee	.	16ccc	.
8DJ	8DJ	.	.	.	.	.	16a	.	16dd	8ff	16bb	.
.	.	.	.	.	.	.	16ffJ	.	16ccJ	.	16aaJ	.
=92	=92	=92	=92	=92	=92	=92	=92	=92	=92	=92	=92	=92
8EL	8EL	2a-	2b]	.	2dd]	.	16g#L	.	(<8bnL	(>8eeL	(>8dddL	.
.	.	.	.	.	.	.	16a	.	.	.	.	.
8EEJ	8EEJ	.	.	.	.	.	16bn	.	8b	8ee	8ddd	.
.	.	.	.	.	.	.	16aJ	.	.	.	.	.
8r	8r	.	.	.	.	.	16g#yL	.	8b)	8ee	8ddd)	.
.	.	.	.	.	.	.	16a	.	.	.	.	.
8E	8E	.	.	.	.	.	16b	.	8g#J	8eeJ)	8bbnJ	.
.	.	.	.	.	.	.	16aJ	.	.	.	.	.
8EL	8EL	[2e	2a	.	2cc	.	16aL	.	(<8aL	(>8eeL	(>8cccL	.
.	.	.	.	.	.	.	16a	.	.	.	.	.
8EEJ	8EEJ	.	.	.	.	.	16cc	.	8a	8ee	8ccc	.
.	.	.	.	.	.	.	16aJ	.	.	.	.	.
8r	8r	.	.	.	.	.	16aL	.	8a)	8ee	8ccc)	.
.	.	.	.	.	.	.	16a	.	.	.	.	.
8E	8E	.	.	.	.	.	16cc	.	8f#J	8eeJ)	8aaJ	.
.	.	.	.	.	.	.	16aJ	.	.	.	.	.
=93	=93	=93	=93	=93	=93	=93	=93	=93	=93	=93	=93	=93
8EL	8EL	2e]	2g#	.	2bn	.	16bnL	f	(<8g#L	8ddL	16bbnL	.
.	.	.	.	.	.	.	16a	.	.	.	16aa	.
8EEJ	8EEJ	.	.	.	.	.	16dd	.	8g#y	(>8bn	16bb	.
.	.	.	.	.	.	.	16aJ	.	.	.	16cccJ	.
8r	8r	.	.	.	.	.	16bL	.	8g#y	8b	16dddL	.
.	.	.	.	.	.	.	16a	.	.	.	16ccc	.
8E	8E	.	.	.	.	.	16dd	.	8g#yJ)	8bJ)	16bb	.
.	.	.	.	.	.	.	16aJ	.	.	.	16dddJ	.
4AA	4AA	4e	4a	.	4a	.	16ccL	.	4e	4cc	16cccL	.
.	.	.	.	.	.	.	16a	.	.	.	16ddd	.
.	.	.	.	.	.	.	16b	.	.	.	16eee	.
.	.	.	.	.	.	.	16aJ	.	.	.	16cccJ	.
8r	8r	8r	8r	.	8r	.	8aL	.	4r	8r	4aa	.
8E	8E	16AL	16AL	.	16AL	.	8eJ	.	.	8cc	.	.
.	.	16G#J	16G#J	.	16G#J	.	.	.	.	.	.	.
=94	=94	=94	=94	=94	=94	=94	=94	=94	=94	=94	=94	=94
16AL	16AL	8AL	8AL	.	8AL	f	8eL	.	4r	8ccL	4r	f
16Bn	16Bn	.	.	.	.	.	.	.	.	.	.	.
16c	16c	16A	16A	.	16A	.	16c	.	.	16a	.	.
16BJ	16BJ	16G#J	16G#J	.	16G#J	.	16dJ	.	.	16bnJ	.	.
16AL	16AL	8AL	8AL	.	8AL	.	8eL	.	8r	8ccL	8r	.
16B	16B	.	.	.	.	.	.	.	.	.	.	.
16c	16c	16A	16A	.	16A	.	16c	.	8ee	16a	8ccc	.
16BJ	16BJ	16G#yJ	16G#yJ	.	16G#yJ	.	16dJ	.	.	16bJ	.	.
16AL	16AL	8AL	8AL	.	8AL	.	8eL	.	8eeL	8ccL	8cccL	.
16B	16B	.	.	.	.	.	.	.	.	.	.	.
16c	16c	16A	16A	.	16A	.	8a	.	16cc	8ee	16aa	.
16BJ	16BJ	16G#yJ	16G#yJ	.	16G#yJ	.	.	.	16ddJ	.	16bbnJ	.
16AL	16AL	8AL	8AL	.	8AL	.	8e	.	8eeL	8cc	8cccL	.
16B	16B	.	.	.	.	.	.	.	.	.	.	.
16c	16c	16A	16A	.	16A	.	8aJ	.	16cc	8eeJ	16aa	.
16BJ	16BJ	16G#yJ	16G#yJ	.	16G#yJ	.	.	.	16ddJ	.	16bbJ	.
=95	=95	=95	=95	=95	=95	=95	=95	=95	=95	=95	=95	=95
16AL	16AL	8AL	8AL	.	8AL	.	8eL	.	8eeL	8ccL	8cccL	.
16Bn	16Bn	.	.	.	.	.	.	.	.	.	.	.
16c	16c	16A	16A	.	16A	.	16c	.	8aa	16a	8eee	.
16BJ	16BJ	16G#J	16G#J	.	16G#J	.	16dJ	.	.	16bnJ	.	.
16AL	16AL	8AL	8AL	.	8AL	.	8eL	.	8ee	8ccL	8ccc	.
16B	16B	.	.	.	.	.	.	.	.	.	.	.
16c	16c	16A	16A	.	16A	.	16c	.	8aaJ	16a	8eeeJ	.
16BJ	16BJ	16G#yJ	16G#yJ	.	16G#yJ	.	16dJ	.	.	16bJ	.	.
16AL	16AL	4A	4A	.	4A	.	8eL	.	8eeL	8ccL	8cccL	.
16B	16B	.	.	.	.	.	.	.	.	.	.	.
16c	16c	.	.	.	.	.	8aJ	.	16cc	8ee	16aa	.
16BJ	16BJ	.	.	.	.	.	.	.	16ddJ	.	16bbnJ	.
16AL	16AL	8r	[4cc	.	4r	.	4e	.	8eeL	8aa	8cccL	.
16B	16B	.	.	.	.	.	.	.	.	.	.	.
16c	16c	8A	.	.	.	.	.	.	8aJ	8eeJ	8aaJ	.
16AJ	16AJ	.	.	.	.	.	.	.	.	.	.	.
=96	=96	=96	=96	=96	=96	=96	=96	=96	=96	=96	=96	=96
16DL	8DL	16dL	2cc]	.	1ff	.	8r	.	16fL	[2ff	8aaL	.
16C	.	16c	.	.	.	.	.	.	16e	.	.	.
16D	8dJ	16d	.	.	.	.	8aL	.	16f	.	8ccc	.
16EJ	.	16eJ	.	.	.	.	.	.	16gJ	.	.	.
16FL	8r	16fL	.	.	.	.	8dd	.	16aL	.	8aa	.
16E	.	16e	.	.	.	.	.	.	16g	.	.	.
16F	8d	16f	.	.	.	.	8aJ	.	16a	.	8cccJ	.
16DJ	.	16dJ	.	.	.	.	.	.	16fJ	.	.	.
16GL	16GL	8gL	[2bn	.	.	.	[2bn	.	16bnL	8ffL]	8ggL	.
16F#	16F#	.	.	.	.	.	.	.	16a	.	.	.
16G	16G	8GJ	.	.	.	.	.	.	16b	8dd	8bbn	.
16AJ	16AJ	.	.	.	.	.	.	.	16ccJ	.	.	.
16BnL	16BnL	8r	.	.	.	.	.	.	16ddL	8gg	8gg	.
16A	16A	.	.	.	.	.	.	.	16cc	.	.	.
16B	16B	8G	.	.	.	.	.	.	16dd	8ddJ	8bbJ	.
16GJ	16GJ	.	.	.	.	.	.	.	16bJ	.	.	.
=97	=97	=97	=97	=97	=97	=97	=97	=97	=97	=97	=97	=97
16CL	8CL	16cL	2b	.	1ee	.	8bL]]	.	16eeL	[2ee	8ggL	.
16BBn	.	16Bn	.	.	.	.	.	.	16dd	.	.	.
16C	8cJ	16c	.	.	.	.	8g	.	16ee	.	8bbn	.
16DJ	.	16dJ	.	.	.	.	.	.	16ffJ	.	.	.
16EL	8r	16eL	.	.	.	.	8cc	.	16ggL	.	8gg	.
16D	.	16d	.	.	.	.	.	.	16ff	.	.	.
16E	8c	16e	.	.	.	.	8gJ	.	16gg	.	8bbJ	.
16CJ	.	16cJ	.	.	.	.	.	.	16eeJ	.	.	.
16FL	16FL	8fL	[2a	.	.	.	[2a	.	16aaL	8eeL]	8ffL	.
16E	16E	.	.	.	.	.	.	.	16gg#	.	.	.
16F	16F	8FJ	.	.	.	.	.	.	16aa	8cc	8aa	.
16GJ	16GJ	.	.	.	.	.	.	.	16bbnJ	.	.	.
16AL	16AL	8r	.	.	.	.	.	.	16cccL	8ff	8ff	.
16G	16G	.	.	.	.	.	.	.	16bb	.	.	.
16A	16A	8F	.	.	.	.	.	.	16ccc	8ccJ	8aaJ	.
16FJ	16FJ	.	.	.	.	.	.	.	16aaJ	.	.	.
=98	=98	=98	=98	=98	=98	=98	=98	=98	=98	=98	=98	=98
16BBnL	8BBnL	16BnL	2a	.	1dd	.	8aL]]	.	8.dddL	[2dd	8ffL	.
16AA	.	16A	.	.	.	.	.	.	.	.	.	.
16BB	8Bn	16B	.	.	.	.	8f#	.	.	.	8aa	.
16CJ	.	16cJ	.	.	.	.	.	.	16cccJ	.	.	.
16DL	8r	16dL	.	.	.	.	8bn	.	16bbnL	.	8ff	.
16C	.	16c	.	.	.	.	.	.	16aa	.	.	.
16D	8BJ	16d	.	.	.	.	8f#yJ	.	16gg#	.	8dddJ	.
16BBJ	.	16BJ	.	.	.	.	.	.	16ff#J	.	.	.
16EL	16EL	8eL	2a-	.	.	.	4.g#	.	8.eeL	8ddL]	4bbn	.
16D	16D	.	.	.	.	.	.	.	.	.	.	.
16E	16E	8E	.	.	.	.	.	.	.	8bn	.	.
16FJ	16FJ	.	.	.	.	.	.	.	16ddJ	.	.	.
16EL	16EL	8r	.	.	.	.	.	.	16ccL	8ee	8r	.
16D	16D	.	.	.	.	.	.	.	16bn	.	.	.
16C	16C	8eJ	.	.	.	.	16aL	.	16a	8ddJ	8aa	.
16BBJ	16BBJ	.	.	.	.	.	16bJ	.	16g#J	.	.	.
=99	=99	=99	=99	=99	=99	=99	=99	=99	=99	=99	=99	=99
8AAL	8AAL	8eL	8aL	.	8ccL	.	8ccL	.	4a	8ccL	4aa	.
16C	16C	8e	8e	.	8e	.	16aa	.	.	16ee	.	.
16BBnJ	16BBnJ	.	.	.	.	.	16gg#J	.	.	16ddJ	.	.
8AAL	8AAL	8e	8e	.	8e	.	8aaL	.	8r	8eeL	4r	.
16E	16E	8cJ	8cJ	.	8cJ	.	8eeJ	.	16ccL	16aa	.	.
16DJ	16DJ	.	.	.	.	.	.	.	16bnJ	16gg#J	.	.
8CL	8CL	8cL	8cL	.	8cL	.	8eeL	.	8aL	8aaL	4r	.
8AJ	8AJ	8A	8A	.	8A	.	16ccc	.	16aa	16ee	.	.
.	.	.	.	.	.	.	16bbnJ	.	16gg#J	16ddJ	.	.
16EL	16EL	8A	8A	.	8A	.	8cccL	.	8aaL	8eeL	8r	.
16D	16D	.	.	.	.	.	.	.	.	.	.	.
16C	16C	8aJ	8aJ	.	8aJ	.	8eeJ	.	16ee	16a	8aa	.
16BBJ	16BBJ	.	.	.	.	.	.	.	16ddJ	16bnJ	.	.
=100	=100	=100	=100	=100	=100	=100	=100	=100	=100	=100	=100	=100
8AAL	8AAL	8aL	8aL	.	8aL	.	8aL	.	8eeL	8ccL	4aa	.
16C	16C	8e	8e	.	8e	.	8e	.	16ee	8aJ	.	.
16BBnJ	16BBnJ	.	.	.	.	.	.	.	16ddJ	.	.	.
8AAL	8AAL	8e	8e	.	8e	.	8e	.	8eeL	8aL	4r	.
16E	16E	8cJ	8cJ	.	8cJ	.	8cJ	.	16cc	16aa	.	.
16DJ	16DJ	.	.	.	.	.	.	.	16bnJ	16gg#J	.	.
8CL	8CL	8cL	8cL	.	8cL	.	8cL	.	8aL	8aaL	2r	.
8AJ	8AJ	8A	8A	.	8A	.	8A	.	16aa	16ee	.	.
.	.	.	.	.	.	.	.	.	16gg#J	16ddJ	.	.
16EL	16EL	8A	8A	.	8A	.	8A	.	8aaL	4ee	.	.
16D	16D	.	.	.	.	.	.	.	.	.	.	.
16C	16C	8eJ	8aJ	.	8eeJ	.	8eeJ	.	8eeJ	.	.	.
16DJ	16DJ	.	.	.	.	.	.	.	.	.	.	.
=101	=101	=101	=101	=101	=101	=101	=101	=101	=101	=101	=101	=101
8EL	8EL	8e	8g#	.	16bnL	.	16bnL	.	16bnL	8r	1r	.
.	.	.	.	.	16cc	.	16cc	.	16cc	.	.	.
8GG#	8GG#	4E	4bn	.	16dd	.	16dd	.	16dd	16eeeL	.	.
.	.	.	.	.	16bJ	.	16bJ	.	16bJ	16fffJ	.	.
8AA	8AA	.	.	.	16ccL	.	16ccL	.	16ccL	8eeeL	.	.
.	.	.	.	.	16a	.	16a	.	16a	.	.	.
8CJ	8CJ	8e	8a	.	16e	.	16e	.	16e	8aaJ	.	.
.	.	.	.	.	16aJ	.	16aJ	.	16aJ	.	.	.
8EL	8EL	8e	8a-L	.	16bL	.	16bL	.	16bL	8gg#L	.	.
.	.	.	.	.	16cc	.	16cc	.	16cc	.	.	.
8GG#y	8GG#y	4E	8b	.	16dd	.	16dd	.	16dd	16eee	.	.
.	.	.	.	.	16bJ	.	16bJ	.	16bJ	16fffJ	.	.
8AA	8AA	.	8an	.	16ccL	.	16ccL	.	16ccL	8eeeL	.	.
.	.	.	.	.	16a	.	16a	.	16a	.	.	.
8CJ	8CJ	8e	8aJ	.	8eeJ	.	8eeJ	.	8eeJ	16aa	.	.
.	.	.	.	.	.	.	.	.	.	16gg#yJ	.	.
=102	=102	=102	=102	=102	=102	=102	=102	=102	=102	=102	=102	=102
8FL	8FL	8aL	8aL	.	(>16ddL	.	(>16ddL	.	16ddL	8.aaL	2r	.
.	.	.	.	.	16cc)	.	16cc)	.	(>16cc	.	.	.
8D	8D	8f	8f	.	(>16bn	.	(>16bn	.	16bn	.	.	.
.	.	.	.	.	16aJ)	.	16aJ)	.	16aJ)	16bbnJ	.	.
8E	8E	8e	8e	.	8eL	.	8eL	.	8eL	8.bbL	.	.
8EEJ	8EEJ	8eJ	8eJ	.	8g#JT	.	8g#JT	.	8g#J	.	.	.
.	.	.	.	.	.	.	.	.	.	16aaJ	.	.
4AA	4AA	4e	4e	.	4a	.	4a	.	4a	4aa	4r	.
8r	8r	8r	8r	.	8r	.	8r	.	8r	8r	8r	.
8F	8F	8f	8f	.	8f	.	8f	.	8ff	8fff	8ff	.
=103	=103	=103	=103	=103	=103	=103	=103	=103	=103	=103	=103	=103
8CL	8CL	8cL	8cL	.	8cL	.	8cL	.	8ccL	8cccL	8ccL	.
16AA	16AA	16A	16A	.	16A	.	16A	.	16a	16aa	16a	.
16BB-yJ	16BB-yJ	16B-yJ	16B-yJ	.	16B-yJ	.	16B-yJ	.	16b-yJ	16bb-yJ	16fJ	.
8CL	8CL	8cL	8cL	.	8cL	.	8cL	.	8ccL	8cccL	8ccL	.
16AA	16AA	16A	16A	.	16A	.	16A	.	16a	16aa	16a	.
16BB-yJ	16BB-yJ	16B-yJ	16B-yJ	.	16B-yJ	.	16B-yJ	.	16b-yJ	16bb-yJ	16fJ	.
8CL	8CL	8cL	8cL	.	8cL	.	8cL	.	8ccL	8cccL	8ccL	.
8F	8F	8f	8f	.	8f	.	8f	.	8ff	8fff	8ff	.
8C	8C	8c	8c	.	8c	.	8c	.	8cc	8ccc	8cc	.
8FJ	8FJ	8fJ	8fJ	.	8fJ	.	8fJ	.	8ffJ	8fffJ	8ffJ	.
=104	=104	=104	=104	=104	=104	=104	=104	=104	=104	=104	=104	=104
8CL	8CL	8cL	8cL	.	8cL	.	8cL	.	8ccL	8cccL	8ccL	.
16AA	16AA	16A	16A	.	16A	.	16A	.	16a	16aa	16a	.
16BB-yJ	16BB-yJ	16B-yJ	16B-yJ	.	16B-yJ	.	16B-yJ	.	16b-yJ	16bb-yJ	16fJ	.
8CL	8CL	8cL	8cL	.	8cL	.	8cL	.	8ccL	8cccL	8ccL	.
16AA	16AA	16A	16A	.	16A	.	16A	.	16a	16aa	16a	.
16BB-yJ	16BB-yJ	16B-yJ	16B-yJ	.	16B-yJ	.	16B-yJ	.	16b-yJ	16bb-yJ	16fJ	.
8CL	8CL	8cL	8cL	.	8cL	.	8cL	.	8ccL	8cccL	8ccL	.
8F	8F	8f	8f	.	8f	.	8f	.	8ff	8fff	8ffJ	.
8C	8C	8c	8c	.	8c	.	8c	.	8cc	8ccc	8ccL	.
8AJ	8AJ	8aJ	8ffJ	.	8ffJ	.	8ffJ	.	8ffJ	8ffJ	16cc	.
.	.	.	.	.	.	.	.	.	.	.	16ccJ	.
=105	=105	=105	=105	=105	=105	=105	=105	=105	=105	=105	=105	=105
8EL	8EL	8gL	16ccL	.	16ggL	.	16ggL	.	16ggL	16ggL	4cc	.
.	.	.	16dd	.	16ff	.	16ff	.	16ff	16ff	.	.
8G	8G	8b-y	16ee	.	16gg	.	16gg	.	16gg	16gg	.	.
.	.	.	16ffJ	.	16aaJ	.	16aaJ	.	16aaJ	16aaJ	.	.
8C	8C	8e	8ggL	.	16bb-yL	.	16bb-yL	.	16bb-yL	16bb-yL	8r	.
.	.	.	.	.	16aa	.	16aa	.	16aa	16aa	.	.
8FJ	8FJ	8ccJ	8ffJ	.	16bb-y	.	16bb-y	.	16bb-y	16bb-y	16ccL	.
.	.	.	.	.	16aaJ	.	16aaJ	.	16aaJ	16aaJ	16ccJ	.
8EL	8EL	4g	4cc	.	16ggL	.	16ggL	.	16ggL	16ggL	4cc	.
.	.	.	.	.	16ff	.	16ff	.	16ff	16ff	.	.
8G	8G	.	.	.	16ee	.	16ee	.	16ee	16ee	.	.
.	.	.	.	.	16ddJ	.	16ddJ	.	16ddJ	16ddJ	.	.
8C	8C	8r	8r	.	16ccL	.	16ccL	.	16ccL	16ccL	8r	.
.	.	.	.	.	16ff	.	16ff	.	16ff	16ff	.	.
8AJ	8AJ	8a	8cc	.	16ee	.	16ee	.	16ee	16ee	16ccL	.
.	.	.	.	.	16ffJ	.	16ffJ	.	16ffJ	16ffJ	16ccJ	.
=106	=106	=106	=106	=106	=106	=106	=106	=106	=106	=106	=106	=106
8EL	8EL	8gL	16ccL	.	16ggL	.	16ggL	.	16ggL	16ggL	4cc	.
.	.	.	16dd	.	16ff	.	16ff	.	16ff	16ff	.	.
8G	8G	8b-y	16ee	.	16gg	.	16gg	.	16gg	16gg	.	.
.	.	.	16ffJ	.	16aaJ	.	16aaJ	.	16aaJ	16aaJ	.	.
8C	8C	8e	8ggL	.	16bb-yL	.	16bb-yL	.	16bb-yL	16bb-yL	8r	.
.	.	.	.	.	16aa	.	16aa	.	16aa	16aa	.	.
8FJ	8FJ	8ccJ	8ffJ	.	16bb-y	.	16bb-y	.	16bb-y	16bb-y	16ccL	.
.	.	.	.	.	16aaJ	.	16aaJ	.	16aaJ	16aaJ	16ccJ	.
16EL	16EL	16gL	16ccL	.	16ggL	.	16ggL	.	16ggL	16ggL	4cc	.
16F	16F	16f	16ff	.	16ff	.	16ff	.	16ff	16ff	.	.
16E	16E	16e	16ee	.	16ee	.	16ee	.	16ee	16ee	.	.
16DJ	16DJ	16dJ	16ddJ	.	16ddJ	.	16ddJ	.	16ddJ	16ddJ	.	.
16CL	16CL	16cL	16ccL	.	16ccL	.	8ccL	.	16ccL	8ccL	4r	.
16BB-y	16BB-y	16B-y	16b-y	.	16b-y	.	.	.	16b-y	.	.	.
16AA	16AA	16A	16a	.	16a	.	8ffJ	.	16a	8ccJ	.	.
16GGJ	16GGJ	16GJ	16gJ	.	16gJ	.	.	.	16gJ	.	.	.
=107	=107	=107	=107	=107	=107	=107	=107	=107	=107	=107	=107	=107
(<8AA-L	8AA-	8d	8f	.	8f	.	8b-yL	p	8f	16ddL	(>8ffL	p
.	.	.	.	.	.	.	.	.	.	16ee-	.	.
8AA-y	8r	8r	8r	.	4ff	.	16dd	.	8b-yL	16ff	8ff	.
.	.	.	.	.	.	.	16ccJ	.	.	16ee-yJ	.	.
8AA-y	8AA-y	8f	8b-y	.	.	.	8b-yL	.	8dd	16ddL	8ff	.
.	.	.	.	.	.	.	.	.	.	16ee-y	.	.
8AA-yJ)	8r	8r	8r	.	4dd	.	16ff	.	8ffJ	16dd	8ffJ)	.
.	.	.	.	.	.	.	16ee-J	.	.	16ccJ	.	.
(<8AA-yL	8AA-y	8b-y	8dd	.	.	.	8ddL	.	8bb-yL	16b-yL	(>8ffL	.
.	.	.	.	.	.	.	.	.	.	16f	.	.
8AA-y	8r	8r	8r	.	4b-y	.	8bb-yJ	.	8ff	16g	8ff	.
.	.	.	.	.	.	.	.	.	.	16a-J	.	.
8AA-y	8AA-y	8dd	8ff	.	.	.	16ffL	.	8dd	16b-yL	8ff	.
.	.	.	.	.	.	.	16ee-y	.	.	16cc	.	.
8AA-yJ)	8r	8r	8r	.	[8ff	.	16dd	.	8b-yJ	16dd	8ffJ)	.
.	.	.	.	.	.	.	16ccJ	.	.	16ee-yJ	.	.
=108	=108	=108	=108	=108	=108	=108	=108	=108	=108	=108	=108	=108
(<8GGL	8GG	8bn	8g	p	8ff]	.	(<8fL 8bn	.	8dL	16ffL	(>8ggL	.
.	.	.	.	.	.	.	.	.	.	16gg	.	.
8GG	8r	8r	8r	.	4dd	.	8f 8b	.	16f	16aa-	8gg	.
.	.	.	.	.	.	.	.	.	16e-J	16ggJ	.	.
8GG	8GG	8g	8bn	.	.	.	8f 8b	.	8dL	16ffL	8gg	.
.	.	.	.	.	.	.	.	.	.	16gg	.	.
8GGJ)	8r	8r	8r	.	4bn	.	8fJ) 8b	.	16a-	16ff	8ggJ)	.
.	.	.	.	.	.	.	.	.	16gJ	16ee-J	.	.
(<8GGL	8GG	8b	8dd	.	.	.	(<8dL 8b	.	8fL	16ddL	(>8ggL	.
.	.	.	.	.	.	.	.	.	.	16cc	.	.
8GG	8r	8r	8r	.	4g	.	8d 8b	.	8ddJ	16bn	8gg	.
.	.	.	.	.	.	.	.	.	.	16ccJ	.	.
8GG	8GG	8dd	8ff	.	.	.	8d 8b	.	16gL	16ddL	8gg	.
.	.	.	.	.	.	.	.	.	16f	16ee-y	.	.
8GGJ)	8r	8r	8r	.	[8gg	.	8dJ) 8b	.	16e-y	16ff	8ggJ)	.
.	.	.	.	.	.	.	.	.	16dJ	16ggJ	.	.
=109	=109	=109	=109	=109	=109	=109	=109	=109	=109	=109	=109	=109
(<8BB-yL	8BB-y	8e	8g	.	8gg]	p	16ccL	f	8eL	8ccL	8ggL	f
.	.	.	.	.	.	.	16ee	.	.	.	.	.
8BB-y	8r	8r	8r	.	4ee	.	16gg	.	8cc	16ee	8cc	.
.	.	.	.	.	.	.	16ffJ	.	.	16ddJ	.	.
8BB-y	8BB-y	8g	8cc	.	.	.	16eeL	.	8cc	8ccL	8gg	.
.	.	.	.	.	.	.	16ff	.	.	.	.	.
8BB-yJ)	8r	8r	8r	.	[8cc	.	16ee	.	8ccJ	16gg	8ggJ	.
.	.	.	.	.	.	.	16ddJ	.	.	16ffJ	.	.
(<8BB-yL	8BB-y	8cc	8ee	.	8cc]	.	16ccL	.	8gL	8eeL	8cccL	.
.	.	.	.	.	.	.	16g	.	.	.	.	.
8BB-y	8r	8r	8r	.	4g	.	16a	.	8g	8cccJ	8gg	.
.	.	.	.	.	.	.	16b-yJ	.	.	.	.	.
8BB-y	8BB-y	8ee	8gg	.	.	.	16ccL	.	8g	16ggL	8gg	.
.	.	.	.	.	.	.	16b-y	.	.	16ff	.	.
8BB-yJ)	8r	8r	8r	.	[8gg	.	16cc	.	8gJ	16ee	8ccJ	.
.	.	.	.	.	.	.	16ddJ	.	.	16ddJ	.	.
=110	=110	=110	=110	=110	=110	=110	=110	=110	=110	=110	=110	=110
(<8AAL	8AA	8cc#	8a	p	8gg]	.	8eeL	p	16gL	(>8cc#L	8aL	p
.	.	.	.	.	.	.	.	.	16a	.	.	.
8AA	8r	8r	8r	.	4ee	.	16gg	.	16b-y	8cc#y	8a	.
.	.	.	.	.	.	.	16ffJ	.	16aJ	.	.	.
8AA	8AA	8A	8cc#	.	.	.	8eeL	.	16gL	8cc#y	8a	.
.	.	.	.	.	.	.	.	.	16a	.	.	.
8AAJ)	8r	8r	8r	.	4cc#	.	16bb-y	.	16g	8cc#yJ)	8aJ	.
.	.	.	.	.	.	.	16aaJ	.	16fJ	.	.	.
(<8AAL	8AA	8c#	8ee	.	.	.	8ggL	.	16eL	(>8cc#yL	8aL	.
.	.	.	.	.	.	.	.	.	16f	.	.	.
8AA	8r	8r	8r	.	4a	.	8eeeJ	.	16g	8cc#y	8a	.
.	.	.	.	.	.	.	.	.	16fJ	.	.	.
8AA	8AA	8e	8gg	.	.	.	16aaL	.	16eL	8cc#y	8a	.
.	.	.	.	.	.	.	16gg	.	16f	.	.	.
8AAJ)	8r	8r	8r	.	[8aa	.	16ff	.	16g	8cc#yJ)	8aJ	.
.	.	.	.	.	.	.	16eeJ	.	16aJ	.	.	.
=111	=111	=111	=111	=111	=111	=111	=111	=111	=111	=111	=111	=111
(<8CL	8CL	8f#	8a	.	8aa]	f	8ff#L	.	8dL	16ddL	8aL	.
.	.	.	.	.	.	.	.	.	.	16ff#	.	.
8C	8r	8r	8r	.	4ff#	.	8dd	.	16f#	16aa	8a	.
.	.	.	.	.	.	.	.	.	16eJ	16ggJ	.	.
8C	8CJ	8a	8dd	.	.	.	8ff#y	.	8dL	16ff#yL	8a	.
.	.	.	.	.	.	.	.	.	.	16gg	.	.
8CJ)	8r	8r	8r	.	4dd	.	8aaJ	.	16a	16ff#y	8aJ	.
.	.	.	.	.	.	.	.	.	16gJ	16eeJ	.	.
(<8CL	8CL	8d	8ff#	.	.	.	8dddL	.	8f#yL	16ddL	8aL	.
.	.	.	.	.	.	.	.	.	.	16a	.	.
8C	8r	8r	8r	.	4a	.	8aa	.	8ddJ	16b-y	8a	.
.	.	.	.	.	.	.	.	.	.	16ccJ	.	.
8C	8CJ	8f#y	8aa	.	.	.	8ff#y	.	16aL	16ddL	8a	.
.	.	.	.	.	.	.	.	.	16g	16ee	.	.
8CJ)	8r	8r	8r	.	[8dd	.	8ddJ	.	16f#y	16ff#y	8aJ	.
.	.	.	.	.	.	.	.	.	16eJ	16ggJ	.	.
=112	=112	=112	=112	=112	=112	=112	=112	=112	=112	=112	=112	=112
(<8BBnL	8BBn	8d	8ff	p	8dd]	p	16ffL	f	8dL	8aa-L	8fL	.
.	.	.	.	.	.	.	16gg	.	.	.	.	.
8BB	8r	8r	8r	.	4a-	.	16aa-	.	(<8dd	16ff	8f	.
.	.	.	.	.	.	.	16ggJ	.	.	16ee-J	.	.
8BB	8BB	8f	8dd	.	.	.	16ffL	.	8dd	8ddL	8f	.
.	.	.	.	.	.	.	16gg	.	.	.	.	.
8BBJ)	8r	8r	8r	.	4f	.	16ff	.	8ddJ)	16aa-y	8fJ	.
.	.	.	.	.	.	.	16ee-J	.	.	16ggJ	.	.
(<8BBL	8BB	8a-	8bn	.	.	.	16ddL	.	(>8ddL	8ffL	8fL	.
.	.	.	.	.	.	.	16ee-y	.	.	.	.	.
8BB	8r	8r	8r	.	4d	.	16ff	.	8dd	16ddd	8f	.
.	.	.	.	.	.	.	16ee-yJ	.	.	16cccJ	.	.
8BB	8BB	8d	8g	.	.	.	16ddL	.	8dd	16bbnL	8f	.
.	.	.	.	.	.	.	16cc	.	.	16aan	.	.
8BBJ)	8r	8r	8r	.	8g	.	16bn	.	8ddJ)	16gg	8fJ	.
.	.	.	.	.	.	.	16aJ	.	.	16ffJ	.	.
=113	=113	=113	=113	=113	=113	=113	=113	=113	=113	=113	=113	=113
8CL	8CL	[1E	[1G	f	[1c	.	4g	.	8gL	8eeL	8ccL	f
16E	16E	.	.	.	.	.	.	.	8cc	8bb-y	16gg	.
16DJ	16DJ	.	.	.	.	.	.	.	.	.	16ffJ	.
8CL	8CL	.	.	.	.	.	8r	.	8ee	8bb-y	8ggL	.
16G	16G	.	.	.	.	.	8bb-	.	8eeJ	8ggJ	8ccJ	.
16FJ	16FJ	.	.	.	.	.	.	.	.	.	.	.
8EL	8EL	.	.	.	.	.	8bb-yL	.	8ggL	8ggL	8ccL	.
8B-yJ	8B-yJ	.	.	.	.	.	8gg	.	8gg	8ee	16ccc	.
.	.	.	.	.	.	.	.	.	.	.	16bb-yJ	.
16GL	16GL	.	.	.	.	.	8gg	.	8ee	8ee	8cccL	.
16F	16F	.	.	.	.	.	.	.	.	.	.	.
16E	16E	.	.	.	.	.	8ccJ	.	8bb-yJ	8ggJ	8ccJ	.
16DJ	16DJ	.	.	.	.	.	.	.	.	.	.	.
=114	=114	=114	=114	=114	=114	=114	=114	=114	=114	=114	=114	=114
8CL	8CL	1E]	1G]	.	1c]	.	8eeL	.	8bb-yL	8ggL	8ccL	.
16E	16E	.	.	.	.	.	8gg	.	8gg	8bb-y	16gg	.
16DJ	16DJ	.	.	.	.	.	.	.	.	.	16ffJ	.
8CL	8CL	.	.	.	.	.	8gg	.	8gg	8bb-y	8ggL	.
16G	16G	.	.	.	.	.	8bb-yJ	.	8eeJ	8ggJ	8ccJ	.
16FJ	16FJ	.	.	.	.	.	.	.	.	.	.	.
8EL	8EL	.	.	.	.	.	8bb-yL	.	8eeL	8ggL	8ccL	.
8B-yJ	8B-yJ	.	.	.	.	.	8gg	.	8ee	8ee	16ccc	.
.	.	.	.	.	.	.	.	.	.	.	16bb-yJ	.
16GL	16GL	.	.	.	.	.	8gg	.	8cc	8ee	8cccL	.
16A	16A	.	.	.	.	.	.	.	.	.	.	.
16B-y	16B-y	.	.	.	.	.	8ccJ	.	8ccJ	8ccJ	16ff	.
16GJ	16GJ	.	.	.	.	.	.	.	.	.	16ggJ	.
=115	=115	=115	=115	=115	=115	=115	=115	=115	=115	=115	=115	=115
8AL	8AL	8AL	8cL	.	8fL	.	8fL	.	8fL	8fL	8ffL	.
8FF	8FF	16c	16f	.	16a	.	16a	.	16a	16a	8cc	.
.	.	16B-yJ	16eJ	.	16gJ	.	16gJ	.	16gJ	16gJ	.	.
8AA	8AA	8AL	8fL	.	8fL	.	8fL	.	8fL	8fL	8cc	.
8CJ	8CJ	16A	16f	.	16cc	.	16cc	.	16cc	16cc	8aJ	.
.	.	16GJ	16eJ	.	16b-yJ	.	16b-yJ	.	16b-yJ	16b-yJ	.	.
8FL	8FL	8FL	8fL	.	8aL	.	8aL	.	8aL	8aL	8aL	.
8C	8C	16A	16f	.	8ffJ	.	8ffJ	.	8ffJ	8ffJ	8f	.
.	.	16GJ	16eJ	.	.	.	.	.	.	.	.	.
8AA	8AA	8FL	8fL	.	16ccL	.	16ccL	.	16ccL	16ccL	8f	.
.	.	.	.	.	16b-y	.	16b-y	.	16b-y	16b-y	.	.
8CJ	8CJ	16c	16f	.	16a	.	16a	.	16a	16a	8ffJ	.
.	.	16B-yJ	16eJ	.	16gJ	.	16gJ	.	16gJ	16gJ	.	.
=116	=116	=116	=116	=116	=116	=116	=116	=116	=116	=116	=116	=116
8AAL	8AAL	8cL	8fL	.	8fL	.	8fL	.	8fL	8fL	8ffL	.
8FF	8FF	16c	16f	.	16a	.	16a	.	16a	16a	8cc	.
.	.	16B-yJ	16eJ	.	16gJ	.	16gJ	.	16gJ	16gJ	.	.
8AA	8AA	8AL	8fL	.	8fL	.	8fL	.	8fL	8fL	8cc	.
8CJ	8CJ	16A	16f	.	16cc	.	16cc	.	16cc	16cc	8aJ	.
.	.	16GJ	16eJ	.	16b-yJ	.	16b-yJ	.	16b-yJ	16b-yJ	.	.
8FL	8FL	8FL	8fL	.	8aL	.	8aL	.	8aL	8aL	8aL	.
8C	8C	16A	16f	.	8ffJ	.	8ffJ	.	8ffJ	8ffJ	8fJ	.
.	.	16GJ	16eJ	.	.	.	.	.	.	.	.	.
8AA	8AA	8FL	8fL	.	16ccL	.	16ccL	.	16ccL	16ccL	8fL	.
.	.	.	.	.	16dd	.	16dd	.	16dd	16dd	.	.
8FFJ	8FFJ	8aJ	8ccJ	.	16ee	.	16ee	.	16ee	16ee	16cc	.
.	.	.	.	.	16ffJ	.	16ffJ	.	16ffJ	16ffJ	16ccJ	.
=117	=117	=117	=117	=117	=117	=117	=117	=117	=117	=117	=117	=117
8CL	8CL	8g	8ee	.	16ggL	.	16ggL	.	16ggL	16ggL	4cc	.
.	.	.	.	.	16aa	.	16aa	.	16aa	16aa	.	.
8EE	8EE	4c	4gg	.	16bb-y	.	16bb-y	.	16bb-y	16bb-y	.	.
.	.	.	.	.	16ggJ	.	16ggJ	.	16ggJ	16ggJ	.	.
8FF	8FF	.	.	.	16aaL	.	16aaL	.	16aaL	16aaL	8r	.
.	.	.	.	.	16ff	.	16ff	.	16ff	16ff	.	.
8AAJ	8AAJ	8a	8ff	.	16cc	.	16cc	.	16cc	16cc	16ccL	.
.	.	.	.	.	16ffJ	.	16ffJ	.	16ffJ	16ffJ	16ccJ	.
8CL	8CL	8g	8eeL	.	16ggL	.	16ggL	.	16ggL	16ggL	4cc	.
.	.	.	.	.	16aa	.	16aa	.	16aa	16aa	.	.
8EE	8EE	4c	8gg	.	16bb-y	.	16bb-y	.	16bb-y	16bb-y	.	.
.	.	.	.	.	16ggJ	.	16ggJ	.	16ggJ	16ggJ	.	.
8FF	8FF	.	8ff	.	16aaL	.	16aaL	.	16aaL	16aaL	8r	.
.	.	.	.	.	16ff	.	16ff	.	16ff	16ff	.	.
8EJ	8EJ	8c	8ggJ	.	8ccc`>J	.	8ccc`>J	.	8ccc`>J	8ccc`>J	16ccL	.
.	.	.	.	.	.	.	.	.	.	.	16ccJ	.
=118	=118	=118	=118	=118	=118	=118	=118	=118	=118	=118	=118	=118
8FL	8FL	8fL	8ccL	.	(>16bb-yL	.	(>16bb-yL	.	(>16bb-yL	(>16bb-yL	8ccL	.
.	.	.	.	.	16aa)	.	16aa)	.	16aa	16aa)	.	.
8BB-y	8BB-y	8d	8b-y	.	(>16gg	.	(>16gg	.	16gg	(>16gg	16ff	.
.	.	.	.	.	16ffJ)	.	16ffJ)	.	16ffJ)	16ffJ)	16ccJ	.
8C	8C	8c	8a	.	8ccL	.	8ccL	.	8ccL	8ccL	16aL	.
.	.	.	.	.	.	.	.	.	.	.	16f	.
8CCJ	8CCJ	8cJ	8gJ	.	8eeJ	.	8eeJ	.	8eeJ	8eeJ	8ccJ	.
4.FF	4.FF	4.c	4.a	.	4.ff	.	4.ff	.	4.ff	4.ff	4.a	.
==	==	==	==	==	==	==	==	==	==	==	==	==
*-	*-	*-	*-	*-	*-	*-	*-	*-	*-	*-	*-	*-
!!!RDF**kern: > = above
!!!RDF**kern: < = below
